<?xml version="1.0" encoding="UTF-8"?>
<map version="1.10" tiledversion="1.10.2" orientation="orthogonal" renderorder="right-down" width="21" height="19" tilewidth="24" tileheight="24" infinite="0" nextlayerid="2" nextobjectid="1">
 <properties>
  <property name="zone" value="arene_ciel_nu"/>
  <property name="frames" type="int" value="24"/>
  <property name="frame_ms" type="int" value="110"/>
  <property name="tuiles_animees" type="int" value="297"/>
 </properties>
 <tileset firstgid="1" source="arene_ciel_nu_tuiles.tsx"/>
 <layer id="1" name="arene_ciel_nu" width="21" height="19">
  <data encoding="csv">
1,2,2,3,4,5,2,1051,1052,1053,1054,1055,1056,1057,2,2,2,2,2,2,19,
20,21,22,1058,1059,1060,1061,1062,1063,1064,1065,1066,1067,1068,1069,1070,1071,1072,64,65,66,
20,1073,1074,1075,1076,1077,1078,1079,1080,1081,1082,1083,1084,1085,1086,1087,1088,1089,1090,1091,134,
1092,1093,1094,1095,1096,1097,1098,1099,1100,1101,1102,1103,1104,1105,1106,1107,1108,1109,1110,1111,1112,
1113,1114,1115,1116,1117,1118,1119,1120,1121,1122,1123,1124,1125,1126,1127,1128,1129,1130,1131,1132,1133,
1134,1135,1136,1137,1138,1139,1140,314,315,316,317,318,319,320,1141,1142,1143,1144,1145,1146,1147,
1148,1149,1150,1151,1152,367,368,1153,1154,1155,375,1156,1157,380,381,1158,1159,1160,1161,1162,1163,
1164,1165,1166,414,415,416,1167,419,1168,1169,1170,1171,1172,430,431,432,433,434,1173,1174,1175,
1176,1177,1178,457,458,459,1179,1180,464,465,1181,468,469,470,471,472,473,474,475,1182,1183,
1184,1185,1186,494,495,496,497,498,499,500,501,1187,1188,506,507,508,509,1189,1190,1191,1192,
1193,1194,1195,1196,1197,536,537,538,539,540,541,542,543,544,545,1198,1199,1200,1201,1202,1203,
1204,1205,1206,1207,1208,1209,1210,1211,586,587,588,589,1212,592,593,1213,1214,1215,1216,1217,1218,
1219,1220,1221,1222,1223,1224,1225,1226,1227,1228,1229,640,1230,1231,1232,1233,1234,1235,1236,1237,1238,
1239,1240,1241,1242,1243,1244,1245,1246,1247,1248,1249,1250,1251,1252,1253,1254,1255,1256,1257,1258,1259,
1260,1261,1262,1263,1264,1265,1266,1267,1268,1269,1270,1271,1272,1273,1274,1275,1276,1277,1278,1279,1280,
1281,1282,1283,1284,1285,1286,1287,1288,1289,1290,1291,1292,1293,1294,1295,1296,1297,1298,1299,1300,1301,
892,1302,1303,1304,1305,1306,1307,1308,1309,1310,1311,1312,1313,1314,1315,1316,1317,1318,1319,1320,481,
955,956,1321,1322,1323,1324,1325,1326,1327,1328,1329,1330,1331,1332,1333,1334,1335,1336,1010,1011,481,
1012,1013,1013,1013,1013,1337,1338,1339,1340,1341,1342,1343,1344,1345,1346,1347,1013,1013,1013,1013,1050
</data>
 </layer>
</map>
