<?xml version="1.0" encoding="UTF-8"?>
<map version="1.10" tiledversion="1.10.2" orientation="orthogonal" renderorder="right-down" width="21" height="21" tilewidth="24" tileheight="24" infinite="0" nextlayerid="8" nextobjectid="1">
 <imagelayer id="1" name="0_ciel">
  <properties>
   <property name="anime" value="non"/>
   <property name="technique" value="degrade procedural"/>
   <property name="frames_dir" value="../../layers/out/pic_fleuri/00_ciel"/>
  </properties>
  <image source="calques/00_ciel.png" width="504" height="504"/>
 </imagelayer>
 <imagelayer id="2" name="1_montagnes">
  <properties>
   <property name="anime" value="oui"/>
   <property name="technique" value="voile de brume glissant"/>
   <property name="frames_dir" value="../../layers/out/pic_fleuri/01_montagnes"/>
  </properties>
  <image source="calques/01_montagnes.png" width="504" height="504"/>
 </imagelayer>
 <imagelayer id="3" name="2_nuages">
  <properties>
   <property name="anime" value="oui"/>
   <property name="technique" value="derive ping-pong + houle + cycling des cretes"/>
   <property name="frames_dir" value="../../layers/out/pic_fleuri/02_nuages"/>
  </properties>
  <image source="calques/02_nuages.png" width="504" height="504"/>
 </imagelayer>
 <imagelayer id="4" name="3_herbe">
  <properties>
   <property name="anime" value="non"/>
   <property name="technique" value="bord superieur organique (fbm)"/>
   <property name="frames_dir" value="../../layers/out/pic_fleuri/03_herbe"/>
  </properties>
  <image source="calques/03_herbe.png" width="504" height="504"/>
 </imagelayer>
 <imagelayer id="5" name="4_falaises">
  <properties>
   <property name="anime" value="non"/>
   <property name="technique" value="chaines verticales + ombres de contact"/>
   <property name="frames_dir" value="../../layers/out/pic_fleuri/04_falaises"/>
  </properties>
  <image source="calques/04_falaises.png" width="504" height="504"/>
 </imagelayer>
 <imagelayer id="6" name="5_fleurs">
  <properties>
   <property name="anime" value="oui"/>
   <property name="technique" value="cisaillement + bob 1px, phase aleatoire"/>
   <property name="frames_dir" value="../../layers/out/pic_fleuri/05_fleurs"/>
  </properties>
  <image source="calques/05_fleurs.png" width="504" height="504"/>
 </imagelayer>
 <imagelayer id="7" name="6_touffes">
  <properties>
   <property name="anime" value="oui"/>
   <property name="technique" value="cisaillement, phase aleatoire"/>
   <property name="frames_dir" value="../../layers/out/pic_fleuri/06_touffes"/>
  </properties>
  <image source="calques/06_touffes.png" width="504" height="504"/>
 </imagelayer>
</map>
