<?xml version="1.0" encoding="UTF-8"?>
<map version="1.10" tiledversion="1.10.2" orientation="orthogonal" renderorder="right-down" width="21" height="21" tilewidth="24" tileheight="24" infinite="0" nextlayerid="2" nextobjectid="1">
 <properties>
  <property name="zone" value="pic_fleuri"/>
  <property name="frames" type="int" value="12"/>
  <property name="frame_ms" type="int" value="110"/>
  <property name="tuiles_animees" type="int" value="319"/>
 </properties>
 <tileset firstgid="1" source="pic_fleuri_tuiles.tsx"/>
 <layer id="1" name="pic_fleuri" width="21" height="21">
  <data encoding="csv">
1,1,1,1,1,1,1,1,1,1,1,1,1,1,1,1,1,1,1,1,1,
2,2,2,2,2,2,2,2,2,2,2,2,2,2,3249,2,2,2,2,2,2,
5,3250,5,5,5,5,5,5,5,5,3251,3252,5,3253,3254,3255,5,5,5,5,5,
3256,3257,3258,3259,3260,3261,3262,3263,3264,3265,3266,3267,3268,3269,3270,3271,3272,3273,3274,3275,3276,
3277,3278,3279,3280,3281,3282,3283,3284,3285,3286,3287,3288,3289,3290,3291,3292,3293,3294,3295,3296,3297,
505,3298,3299,3300,3301,3302,3303,3304,3305,3306,3307,3308,3309,3310,3311,3312,3313,3314,3315,3316,727,
728,729,3317,3318,3319,3320,771,772,773,3321,3322,792,3323,3324,3325,3326,3327,3328,3329,3330,874,
875,3331,3332,889,3333,3334,910,911,3335,3336,3337,3338,3339,3340,3341,3342,3343,3344,3345,3346,1027,
1028,1029,1030,1031,3347,3348,3349,3350,3351,3352,3353,3354,3355,3356,3357,3358,3359,3360,3361,3362,3363,
1209,1210,1211,1212,1213,3364,3365,3366,3367,3368,3369,3370,3371,3372,3373,3374,3375,3376,3377,3378,3379,
1369,3380,3381,3382,3383,3384,3385,3386,3387,3388,3389,3390,3391,3392,3393,3394,3395,3396,3397,3398,1575,
1576,1577,3399,3400,3401,1602,1603,3402,3403,3404,3405,3406,3407,3408,1675,3409,3410,3411,3412,3413,1726,
1727,3414,3415,3416,3417,3418,1785,3419,3420,3421,3422,3423,3424,3425,3426,3427,3428,3429,3430,3431,1921,
1922,3432,3433,3434,3435,3436,3437,3438,3439,3440,3441,3442,3443,3444,2043,3445,3446,3447,3448,2085,2086,
2087,3449,3450,3451,2120,2121,3452,3453,3454,3455,3456,3457,3458,2197,3459,3460,3461,3462,3463,3464,2262,
3465,3466,2286,3467,3468,2293,3469,3470,3471,3472,3473,3474,3475,3476,3477,3478,3479,3480,3481,3482,2432,
2433,3483,3484,2452,2453,2454,3485,3486,3487,3488,3489,3490,3491,3492,2534,3493,3494,3495,3496,3497,2579,
2580,3498,3499,2602,3500,3501,3502,3503,3504,3505,3506,3507,3508,3509,2708,3510,3511,3512,3513,3514,2763,
2764,3515,3516,3517,3518,3519,3520,3521,3522,3523,3524,3525,3526,3527,3528,3529,3530,3531,3532,3533,2932,
3534,3535,3536,3537,3538,3539,3540,3541,3542,3543,3544,3545,3546,3547,3548,3549,3550,3551,3552,3110,3111,
3553,3554,3130,3555,3556,3557,3558,3559,3560,3561,3191,3192,3562,3198,3199,3563,3564,3565,3566,3567,3248
</data>
 </layer>
</map>
