<?xml version="1.0" encoding="UTF-8"?>
<map version="1.10" tiledversion="1.10.2" orientation="orthogonal" renderorder="right-down" width="21" height="19" tilewidth="24" tileheight="24" infinite="0" nextlayerid="2" nextobjectid="1">
 <properties>
  <property name="zone" value="cascade_foret"/>
  <property name="frames" type="int" value="24"/>
  <property name="frame_ms" type="int" value="110"/>
  <property name="tuiles_animees" type="int" value="290"/>
 </properties>
 <tileset firstgid="1" source="cascade_foret_tuiles.tsx"/>
 <layer id="1" name="cascade_foret" width="21" height="19">
  <data encoding="csv">
1,1371,1372,1373,8,9,1374,1375,1376,1377,18,1378,1379,1380,1381,1382,1383,1384,1385,1386,1387,
1388,1389,58,59,60,61,62,63,64,1390,1391,1392,1393,1394,98,99,100,101,1395,1396,1397,
1398,1399,1400,1401,132,133,134,135,136,137,1402,1403,1404,152,1405,1406,167,168,169,170,1407,
1408,1409,1410,1411,1412,208,209,210,211,212,1413,1414,1415,234,235,236,237,238,1416,1417,1418,
1419,1420,1421,1422,1423,1424,1425,1426,1427,1428,1429,1430,1431,1432,1433,1434,313,314,315,316,1435,
1436,1437,1438,1439,1440,1441,1442,1443,1444,1445,1446,1447,1448,1449,1450,1451,1452,398,1453,1454,1455,
1456,1457,1458,416,417,1459,1460,1461,1462,1463,1464,1465,1466,1467,1468,1469,1470,465,466,1471,1472,
1473,1474,1475,492,1476,1477,1478,427,427,427,427,427,427,505,1479,1480,1481,518,519,520,1482,
1483,1484,1485,1486,1487,1488,1489,1490,1491,1492,427,1493,1494,1495,1496,1497,1498,591,592,1499,1500,
1501,1502,1503,1504,1505,1506,1507,1508,1509,1510,1511,1512,1513,1514,1515,1516,666,667,668,1517,1518,
1519,1520,1521,1522,1523,699,700,701,1524,1525,1526,1527,1528,1529,1530,1531,1532,750,751,1533,1534,
1535,1536,1537,1538,780,781,782,783,784,1539,1540,1541,797,1542,1543,1544,1545,818,819,820,1546,
1547,1548,1549,1550,848,849,850,851,1551,1552,1553,1554,877,1555,1556,893,1557,1558,1559,1560,1561,
1562,1563,920,921,922,923,924,925,1564,1565,1566,1567,1568,1569,1570,959,1571,1572,1573,1574,1575,
1576,1577,987,1578,1579,1002,1003,1004,1005,1580,1581,1582,1583,1584,1585,1039,1586,1587,1588,1589,1590,
1591,1592,1073,1593,1594,1595,1091,1092,1596,1597,1598,1599,1600,1601,1602,1603,1141,1604,1605,1148,1149,
1606,1607,1156,1608,1609,1610,1611,1612,1613,1614,1615,1616,1617,1618,1619,1620,1621,1622,1623,1624,1625,
1626,1627,1628,1629,1630,1631,1274,1275,1632,1633,1634,1635,1636,1637,1638,1639,1640,1641,1642,1643,1644,
1645,1646,1647,1325,1648,1649,1650,1336,1337,1651,1652,1653,1654,1351,1352,1655,1656,1657,1658,1659,1660
</data>
 </layer>
</map>
