<?xml version="1.0" encoding="UTF-8"?>
<map version="1.10" tiledversion="1.10.2" orientation="orthogonal" renderorder="right-down" width="21" height="19" tilewidth="24" tileheight="24" infinite="0" nextlayerid="2" nextobjectid="1">
 <properties>
  <property name="zone" value="entree_ruines"/>
  <property name="frames" type="int" value="24"/>
  <property name="frame_ms" type="int" value="110"/>
  <property name="tuiles_animees" type="int" value="55"/>
 </properties>
 <tileset firstgid="1" source="entree_ruines_tuiles.tsx"/>
 <layer id="1" name="entree_ruines" width="21" height="19">
  <data encoding="csv">
1,2,3,4,5,6,7,8,9,10,11,12,13,14,15,16,17,18,19,20,21,
22,23,24,25,26,660,661,39,40,41,42,43,44,45,46,47,48,49,50,51,52,
53,54,55,662,61,663,664,665,80,81,82,83,84,85,86,87,88,89,90,91,92,
93,94,666,667,105,106,107,108,109,110,111,112,113,114,115,116,117,118,119,120,121,
122,123,124,125,126,127,128,129,668,669,141,142,143,144,145,146,147,148,149,150,151,
152,153,154,155,670,162,671,168,169,170,171,172,173,672,673,674,191,192,193,194,195,
196,197,198,199,675,208,209,210,211,212,212,212,213,214,215,216,217,218,219,220,221,
222,223,224,676,677,678,242,243,244,245,246,247,248,249,250,251,679,680,681,269,270,
271,272,273,274,275,276,277,278,279,280,281,282,682,683,297,298,684,685,686,317,318,
319,320,321,322,323,687,331,332,333,334,335,336,688,689,349,350,351,352,353,354,355,
356,357,358,690,366,367,368,369,370,371,372,373,374,375,376,377,378,379,380,381,382,
383,384,385,386,387,388,389,390,391,392,393,394,691,402,403,404,692,693,413,414,415,
416,417,418,419,420,421,422,423,694,695,437,438,439,440,696,448,697,698,699,462,463,
464,465,466,467,468,469,470,471,472,473,474,700,701,490,491,492,702,497,498,499,500,
501,502,503,504,505,506,507,508,509,510,511,703,704,526,705,706,707,708,709,560,561,
562,563,564,565,566,567,568,569,570,571,572,573,574,575,576,710,711,712,713,591,592,
593,594,595,596,597,598,599,600,601,602,603,604,605,606,607,714,613,614,615,616,617,
618,619,620,621,622,623,624,625,626,627,628,629,630,631,632,633,634,635,636,637,638,
639,640,641,642,643,644,645,646,647,648,649,650,651,652,653,654,655,656,657,658,659
</data>
 </layer>
</map>
