<?xml version="1.0" encoding="UTF-8"?>
<map version="1.10" tiledversion="1.10.2" orientation="orthogonal" renderorder="right-down" width="21" height="19" tilewidth="24" tileheight="24" infinite="0" nextlayerid="2" nextobjectid="1">
 <properties>
  <property name="zone" value="arene_volcan_nu"/>
  <property name="frames" type="int" value="24"/>
  <property name="frame_ms" type="int" value="110"/>
  <property name="tuiles_animees" type="int" value="257"/>
 </properties>
 <tileset firstgid="1" source="arene_volcan_nu_tuiles.tsx"/>
 <layer id="1" name="arene_volcan_nu" width="21" height="19">
  <data encoding="csv">
1,1,1,1,1,1008,1009,1010,1011,1012,1013,1014,1015,1016,1017,1018,1019,1,1,1,1,
1,1,1,1020,1021,1022,1023,1024,1025,1026,1027,1028,1029,1030,1031,1032,1033,1034,1,1,1,
1,1,1035,1036,1037,1038,1039,1040,1041,1042,1043,1044,1045,1046,1047,1048,1049,1050,1051,1,1,
1,1052,1053,1054,1055,1056,1057,1058,1059,1060,1061,1062,1063,1064,1065,1066,1067,1068,1069,1,1,
1070,1071,1072,1073,1074,1075,1076,1077,1078,1079,1080,1081,1082,1083,1084,1085,1086,1087,1088,1089,1090,
1091,1092,1093,1094,1095,1096,1097,1098,1099,1100,1101,1102,1103,1104,1105,1106,1107,1108,1109,1110,1111,
1112,1113,1114,1115,1116,1117,1118,367,368,369,370,371,372,373,1119,1120,1121,1122,1123,1124,1125,
1126,1127,1128,1129,1130,1131,1132,426,427,428,429,430,431,432,433,1133,1134,1135,1136,1137,1138,
1139,1140,1141,1142,470,471,472,473,474,475,476,477,478,479,480,481,482,1143,1144,1145,1146,
1147,1148,1149,508,509,510,511,512,513,514,515,516,517,518,519,520,521,522,1150,1151,1152,
1153,1154,542,543,544,545,546,547,548,549,550,551,552,553,554,555,556,557,558,1155,1156,
1157,1158,574,575,576,577,578,579,580,581,582,583,584,585,586,587,588,589,590,1159,1160,
1161,1162,605,606,607,608,609,610,611,612,613,614,615,616,617,618,619,620,621,1163,1164,
1165,1166,1167,1168,644,645,646,647,648,649,650,651,652,653,654,655,656,1169,1170,1171,1172,
1173,1174,1175,1176,1177,1178,1179,698,699,700,701,702,703,704,1180,1181,1182,1183,1184,1185,1186,
1187,1188,1189,1190,1191,1192,1193,1194,1195,1196,765,1197,1198,1199,1200,1201,1202,1203,1204,1205,1206,
1207,1208,1209,1210,1211,1212,1213,1214,1215,1216,837,1217,1218,1219,1220,1221,1222,1223,1224,1225,1226,
1227,1228,1229,1230,1231,1232,1233,1234,1235,1236,909,1237,1238,1239,1240,1241,1242,1243,1244,1245,1246,
1,1247,1248,1249,1250,1251,1252,1253,1254,1255,977,1256,1257,1258,1259,1260,1261,1262,1263,1264,1
</data>
 </layer>
</map>
