<?xml version="1.0" encoding="UTF-8"?>
<map version="1.10" tiledversion="1.10.2" orientation="orthogonal" renderorder="right-down" width="21" height="19" tilewidth="24" tileheight="24" infinite="0" nextlayerid="2" nextobjectid="1">
 <properties>
  <property name="zone" value="entree_source"/>
  <property name="frames" type="int" value="12"/>
  <property name="frame_ms" type="int" value="110"/>
  <property name="tuiles_animees" type="int" value="116"/>
 </properties>
 <tileset firstgid="1" source="entree_source_tuiles.tsx"/>
 <layer id="1" name="entree_source" width="21" height="19">
  <data encoding="csv">
1,2,3,4,5,6,7,8,9,10,11,12,13,14,15,16,17,18,19,20,21,
22,23,1277,1278,46,47,48,49,50,51,52,53,54,55,56,57,58,59,60,61,62,
63,64,1279,1280,73,74,75,76,77,78,79,1281,89,90,91,92,93,94,95,96,97,
98,99,1282,1283,122,123,124,125,126,127,128,1284,1285,141,142,143,144,145,146,147,148,
149,150,1286,1287,159,1288,1289,1290,185,186,187,1291,1292,202,203,204,205,206,207,208,209,
210,211,212,213,1293,1294,1295,1296,1297,1298,1299,1300,273,274,275,276,277,278,1301,286,287,
288,289,290,291,292,293,1302,1303,1304,1305,1306,1307,355,356,357,358,359,360,361,362,363,
364,365,366,1308,1309,381,1310,1311,1312,1313,1314,1315,1316,455,456,457,458,1317,1318,1319,489,
490,491,492,1320,1321,502,1322,1323,1324,1325,1326,1327,1328,1329,1330,1331,601,1332,1333,1334,612,
613,614,615,616,1335,1336,633,1337,1338,1339,1340,1341,1342,1343,1344,1345,706,707,708,709,710,
711,712,713,714,715,716,717,718,1346,1347,1348,1349,1350,776,777,778,779,780,781,782,783,
784,785,786,787,788,789,790,1351,1352,1353,1354,1355,1356,842,843,844,845,846,847,848,849,
850,1357,858,859,1358,1359,1360,889,890,1361,1362,1363,913,914,915,916,917,918,919,920,921,
922,1364,928,1365,1366,1367,1368,976,1369,1370,1371,1372,1023,1024,1025,1026,1027,1028,1029,1030,1031,
1032,1033,1034,1373,1374,1375,1376,1066,1377,1378,1379,1380,1381,1123,1124,1125,1126,1127,1128,1129,1130,
1131,1132,1133,1134,1135,1382,1383,1156,1384,1385,1386,1387,1177,1178,1179,1180,1181,1182,1183,1184,1185,
1186,1187,1188,1189,1190,1388,1389,1209,1210,1211,1212,1213,1214,1215,1216,1217,1218,1219,1220,1221,1222,
1223,1224,1225,1226,1227,1390,1391,1236,1237,1238,1239,1240,1241,1242,1243,1244,1245,1246,1247,1392,1255,
1256,1257,1258,1259,1260,1261,1262,1263,1264,1265,1266,1267,1268,1269,1270,1271,1272,1273,1274,1275,1276
</data>
 </layer>
</map>
