<?xml version="1.0" encoding="UTF-8"?>
<map version="1.10" tiledversion="1.10.2" orientation="orthogonal" renderorder="right-down" width="21" height="19" tilewidth="24" tileheight="24" infinite="0" nextlayerid="2" nextobjectid="1">
 <properties>
  <property name="zone" value="arene_bosquet_crepuscule"/>
  <property name="frames" type="int" value="24"/>
  <property name="frame_ms" type="int" value="110"/>
  <property name="tuiles_animees" type="int" value="301"/>
 </properties>
 <tileset firstgid="1" source="arene_bosquet_crepuscule_tuiles.tsx"/>
 <layer id="1" name="arene_bosquet_crepuscule" width="21" height="19">
  <data encoding="csv">
1784,1785,1786,24,25,1787,28,1788,1789,1790,1791,1792,1793,1794,1795,62,1796,1797,1798,79,80,
1799,1800,1801,1802,1803,1804,122,123,124,125,1805,1806,1807,1808,140,141,142,1809,1810,1811,1812,
164,165,1813,1814,1815,1816,1817,206,1818,209,1819,212,213,1820,1821,1822,1823,238,1824,1825,1826,
1827,269,1828,281,1829,1830,1831,1832,1833,308,1834,1835,315,316,1836,1837,1838,1839,337,1840,1841,
1842,1843,1844,1845,359,360,361,1846,1847,377,378,379,380,1848,1849,1850,1851,1852,1853,1854,1855,
1856,1857,1858,461,462,1859,1860,1861,1862,491,1863,1864,1865,1866,1867,1868,1869,1870,1871,1872,1873,
1874,1875,1876,577,578,579,1877,1878,1879,1880,1881,603,604,605,606,1882,609,1883,1884,625,626,
1885,1886,1887,1888,1889,667,1890,670,671,1891,1892,1893,1894,692,693,694,1895,1896,1897,1898,1899,
1900,1901,1902,1903,1904,1905,1906,749,1907,1908,1909,1910,1911,774,775,776,777,1912,1913,1914,1915,
803,1916,1917,820,821,1918,824,1919,1920,1921,849,1922,1923,1924,1925,1926,1927,1928,1929,896,897,
898,1930,1931,1932,1933,1934,1935,1936,1937,1938,1939,1940,1941,1942,1943,1000,1944,1945,1946,1947,1948,
1949,1950,1951,1952,1953,1954,1955,1956,1957,1958,1959,1960,1961,1962,1963,1964,1965,1966,1967,1968,1969,
1970,1971,1972,1973,1974,1975,1976,1977,1978,1979,1980,1981,1982,1250,1251,1983,1984,1985,1986,1987,1988,
1989,1990,1991,1992,1295,1296,1297,1298,1993,1994,1314,1315,1316,1317,1318,1995,1996,1326,1997,1998,1999,
2000,2001,2002,2003,2004,2005,1396,1397,2006,2007,1402,2008,1406,1407,1408,2009,2010,2011,2012,2013,2014,
2015,2016,2017,2018,2019,2020,1476,2021,2022,1491,1492,2023,2024,2025,1514,2026,2027,2028,2029,2030,2031,
2032,2033,2034,2035,2036,2037,2038,2039,2040,1602,2041,2042,2043,2044,2045,1624,2046,2047,1639,2048,2049,
2050,1653,1654,1655,1656,2051,2052,2053,2054,2055,2056,2057,2058,2059,2060,2061,2062,2063,1715,2064,2065,
2066,2067,2068,2069,2070,2071,2072,2073,2074,2075,2076,2077,2078,2079,1767,2080,2081,2082,1779,2083,2084
</data>
 </layer>
</map>
