<?xml version="1.0" encoding="UTF-8"?>
<map version="1.10" tiledversion="1.10.2" orientation="orthogonal" renderorder="right-down" width="21" height="19" tilewidth="24" tileheight="24" infinite="0" nextlayerid="2" nextobjectid="1">
 <properties>
  <property name="zone" value="plage"/>
  <property name="frames" type="int" value="12"/>
  <property name="frame_ms" type="int" value="110"/>
  <property name="tuiles_animees" type="int" value="273"/>
 </properties>
 <tileset firstgid="1" source="plage_tuiles.tsx"/>
 <layer id="1" name="plage" width="21" height="19">
  <data encoding="csv">
2624,2625,2626,2627,2628,2629,2630,2631,2632,2633,2634,2635,2636,2637,2638,2639,2640,2641,2642,2643,2644,
2645,2646,2647,2648,2649,2650,2651,2652,2653,2654,2655,2656,2657,2658,2659,2660,2661,2662,2663,2664,2665,
2666,2667,2668,2669,2670,2671,2672,2673,2674,2675,2676,2677,2678,2679,2680,2681,2682,2683,2684,2685,2686,
2687,2688,2689,2690,2691,2692,2693,2694,2695,2696,2697,2698,2699,2700,2701,2702,2703,2704,2705,2706,2707,
2708,2709,2710,2711,2712,2713,2714,2715,2716,2717,2718,2719,2720,2721,2722,2723,2724,1213,2725,2726,2727,
2728,2729,2730,2731,2732,2733,2734,2735,2736,2737,2738,2739,2740,2741,2742,2743,2744,2745,2746,1467,1468,
2747,2748,2749,2750,2751,2752,2753,2754,2755,2756,2757,2758,2759,2760,2761,1609,2762,2763,1614,1615,1616,
2764,2765,2766,1627,1628,2767,2768,2769,2770,2771,2772,1668,1669,1670,1671,1672,1673,2773,2774,2775,2776,
2777,2778,2779,1734,1735,1736,1737,2780,2781,1744,1745,1746,1747,1748,1749,1750,2782,2783,2784,2785,2786,
1800,2787,2788,1807,1808,1809,1810,1811,1812,1813,1814,1815,1816,1817,1818,1819,1820,2789,2790,2791,2792,
1850,1851,1852,2793,2794,1867,1868,1869,1870,1871,1872,1873,1874,1875,1876,1877,1878,1879,2795,2796,2797,
1903,1904,1905,2798,2799,1924,1925,1926,1927,1928,1929,1930,1931,1932,1933,1934,2800,2801,2802,2803,2804,
1979,2805,1985,1986,2806,1989,1990,1991,1992,2807,2808,2011,2012,2013,2014,2015,2809,2810,2811,2812,2813,
2814,2815,2816,2080,2081,2082,2083,2084,2085,2817,2818,2099,2100,2819,2820,2821,2822,2823,2824,2825,2826,
2827,2828,2829,2830,2831,2179,2180,2181,2182,2183,2184,2185,2186,2832,2833,2834,2835,2836,2211,2212,2213,
2837,2838,2839,2840,2841,2842,2843,2844,2275,2276,2277,2278,2845,2846,2847,2848,2849,2850,2851,2852,2853,
2854,2855,2856,2857,2858,2859,2860,2861,2862,2439,2440,2441,2863,2864,2865,2866,2867,2868,2869,2870,2871,
2872,2873,2874,2875,2876,2877,2878,2879,2551,2552,2553,2880,2881,2882,2883,2884,2885,2886,2887,2888,2889,
2890,2595,2891,2892,2600,2601,2602,2893,2605,2606,2607,2608,2894,2612,2895,2896,2619,2620,2621,2622,2623
</data>
 </layer>
</map>
