<?xml version="1.0" encoding="UTF-8"?>
<map version="1.10" tiledversion="1.10.2" orientation="orthogonal" renderorder="right-down" width="21" height="19" tilewidth="24" tileheight="24" infinite="0" nextlayerid="2" nextobjectid="1">
 <properties>
  <property name="zone" value="caverne_lave"/>
  <property name="frames" type="int" value="12"/>
  <property name="frame_ms" type="int" value="110"/>
  <property name="tuiles_animees" type="int" value="90"/>
 </properties>
 <tileset firstgid="1" source="caverne_lave_tuiles.tsx"/>
 <layer id="1" name="caverne_lave" width="21" height="19">
  <data encoding="csv">
1,2,3,4,5,6,7,8,9,10,11,12,13,14,15,16,17,18,19,20,629,
24,25,26,27,28,29,30,31,32,33,34,35,36,37,38,39,40,41,630,631,632,
51,52,53,54,55,56,57,58,59,60,61,62,63,64,65,66,67,633,634,635,79,
80,81,82,83,84,85,86,87,88,89,90,91,92,93,94,95,636,637,638,639,640,
116,117,118,119,120,121,122,123,124,125,126,127,128,129,641,642,643,644,645,646,154,
155,156,157,158,159,160,161,162,163,164,165,166,167,647,648,649,650,651,652,192,193,
194,195,196,197,198,199,200,201,202,203,204,205,653,654,655,656,657,658,659,234,235,
236,237,238,239,240,241,242,243,244,245,246,660,661,662,663,664,665,666,273,274,275,
276,277,278,279,280,281,282,283,284,667,668,669,670,671,672,306,307,308,309,310,311,
312,313,314,315,316,317,318,319,673,674,326,675,676,677,678,341,342,343,344,345,346,
347,348,349,350,351,679,680,681,682,367,683,684,374,375,376,377,378,379,380,381,382,
383,384,385,386,387,685,686,687,399,688,689,406,407,408,409,410,411,412,413,414,415,
416,417,418,419,690,691,692,693,694,695,440,441,442,443,444,445,446,447,448,449,450,
451,452,696,697,698,465,699,700,473,474,475,476,477,478,479,480,481,482,483,484,485,
486,701,702,703,498,704,705,505,506,507,508,509,510,511,512,513,514,515,516,517,518,
706,707,708,528,709,710,711,538,539,540,541,542,543,544,545,546,547,548,549,550,551,
712,555,556,713,714,563,564,565,566,567,568,569,570,571,572,573,574,575,576,577,578,
579,580,715,716,587,588,589,590,591,592,593,594,595,596,597,598,599,600,601,602,603,
604,717,718,611,612,613,614,615,616,617,618,619,620,621,622,623,624,625,626,627,628
</data>
 </layer>
</map>
