<?xml version="1.0" encoding="UTF-8"?>
<map version="1.10" tiledversion="1.10.2" orientation="orthogonal" renderorder="right-down" width="21" height="19" tilewidth="24" tileheight="24" infinite="0" nextlayerid="2" nextobjectid="1">
 <properties>
  <property name="zone" value="arene_bosquet_nu"/>
  <property name="frames" type="int" value="24"/>
  <property name="frame_ms" type="int" value="110"/>
  <property name="tuiles_animees" type="int" value="204"/>
 </properties>
 <tileset firstgid="1" source="arene_bosquet_nu_tuiles.tsx"/>
 <layer id="1" name="arene_bosquet_nu" width="21" height="19">
  <data encoding="csv">
1,1,1,1,1,2,815,816,817,818,819,820,821,822,823,36,1,1,1,1,1,
1,37,38,38,824,825,826,827,50,828,829,830,831,832,833,834,835,38,38,74,1,
1,75,76,836,837,76,838,839,840,841,842,843,844,845,76,846,847,101,848,849,106,
1,850,851,76,76,76,115,116,852,853,854,855,76,76,76,76,130,131,856,857,858,
859,860,861,76,76,154,155,862,863,864,865,866,867,868,76,76,180,181,869,870,871,
872,873,874,76,76,875,876,877,878,220,221,222,879,880,881,882,76,236,883,884,885,
886,887,888,889,890,891,892,270,271,272,273,274,275,276,893,894,895,896,897,898,899,
900,901,902,903,904,319,320,321,322,323,324,325,326,327,328,329,330,905,906,907,908,
909,910,911,358,359,360,361,362,363,364,365,366,367,368,369,370,371,372,373,912,913,
914,385,386,387,388,389,390,391,392,393,394,395,396,397,398,399,400,401,402,403,915,
916,917,416,417,418,419,420,421,422,423,424,425,426,427,428,429,430,431,432,918,919,
920,921,922,923,455,456,457,458,459,460,461,462,463,464,465,466,467,924,925,926,927,
928,929,930,931,932,933,934,507,508,509,510,511,512,513,514,935,936,937,938,939,940,
941,942,943,76,76,944,945,946,947,563,564,565,566,948,949,950,951,582,952,953,954,
955,956,957,76,76,76,76,958,959,960,616,961,962,963,964,76,76,76,965,966,967,
968,969,970,651,76,76,76,76,971,972,660,973,974,76,76,76,76,76,975,976,977,
673,978,979,980,981,982,983,984,985,986,702,987,988,989,990,991,992,76,76,294,1,
718,719,720,721,993,994,995,996,997,998,746,999,1000,1001,1002,1003,1004,1005,720,771,1,
1,1,1,1,1006,1007,1008,1009,1010,1011,1012,1013,1014,1015,1016,1017,1018,1,1,1,1
</data>
 </layer>
</map>
