<?xml version="1.0" encoding="UTF-8"?>
<map version="1.10" tiledversion="1.10.2" orientation="orthogonal" renderorder="right-down" width="21" height="19" tilewidth="24" tileheight="24" infinite="0" nextlayerid="2" nextobjectid="1">
 <properties>
  <property name="zone" value="foret_bambous"/>
  <property name="frames" type="int" value="12"/>
  <property name="frame_ms" type="int" value="110"/>
  <property name="tuiles_animees" type="int" value="236"/>
 </properties>
 <tileset firstgid="1" source="foret_bambous_tuiles.tsx"/>
 <layer id="1" name="foret_bambous" width="21" height="19">
  <data encoding="csv">
1,2065,13,14,15,2066,27,28,29,30,31,32,33,34,2067,2068,2069,66,67,2070,79,
80,2071,2072,2073,107,2074,117,118,2075,128,129,130,131,132,2076,2077,2078,154,155,2079,167,
168,2080,2081,2082,198,199,200,201,202,203,204,205,206,207,2083,2084,2085,218,219,2086,232,
233,2087,2088,2089,259,2090,2091,2092,2093,288,289,2094,2095,304,305,2096,2097,328,2098,2099,2100,
360,2101,2102,2103,392,2104,2105,2106,2107,2108,426,2109,2110,2111,2112,470,471,472,2113,2114,2115,
501,2116,2117,2118,2119,2120,2121,2122,2123,2124,2125,583,584,585,586,587,588,589,590,2126,2127,
612,2128,2129,2130,2131,637,638,2132,2133,2134,2135,659,660,661,662,663,664,665,666,2136,2137,
680,2138,2139,697,698,2140,2141,715,716,717,718,719,720,721,722,723,724,725,726,2142,732,
733,2143,2144,2145,760,761,762,763,764,765,2146,2147,2148,2149,2150,791,792,793,794,2151,806,
807,2152,2153,2154,2155,2156,846,847,848,849,2157,2158,2159,2160,2161,891,892,893,894,2162,904,
905,2163,2164,2165,2166,2167,944,945,2168,2169,962,2170,2171,969,970,971,2172,2173,990,2174,2175,
1011,2176,2177,1031,2178,2179,1052,1053,2180,2181,2182,2183,2184,1096,1097,1098,2185,2186,1109,2187,2188,
2189,2190,2191,1158,2192,2193,1165,1166,1167,2194,2195,2196,2197,2198,1216,2199,2200,1238,2201,2202,2203,
2204,2205,2206,1304,1305,2207,2208,2209,2210,2211,2212,2213,2214,1387,2215,2216,2217,1421,2218,2219,2220,
2221,2222,2223,1489,2224,2225,2226,2227,2228,2229,1548,2230,2231,2232,2233,2234,2235,2236,2237,2238,2239,
2240,2241,2242,1670,2243,2244,2245,2246,2247,2248,2249,2250,2251,2252,2253,2254,2255,2256,2257,2258,2259,
2260,2261,2262,1822,1823,2263,2264,2265,2266,2267,2268,2269,2270,2271,1900,1901,2272,2273,2274,2275,2276,
1936,1937,2277,1943,1944,2278,2279,2280,2281,2282,2283,2284,2285,2286,1995,1996,2287,2288,2289,2290,2291,
2019,2020,2021,2022,2023,2292,2293,2294,2295,2041,2296,2297,2049,2298,2054,2055,2299,2300,2062,2063,2064
</data>
 </layer>
</map>
