<?xml version="1.0" encoding="UTF-8"?>
<map version="1.10" tiledversion="1.10.2" orientation="orthogonal" renderorder="right-down" width="21" height="19" tilewidth="24" tileheight="24" infinite="0" nextlayerid="2" nextobjectid="1">
 <properties>
  <property name="zone" value="pied_montagne"/>
  <property name="frames" type="int" value="12"/>
  <property name="frame_ms" type="int" value="110"/>
  <property name="tuiles_animees" type="int" value="237"/>
 </properties>
 <tileset firstgid="1" source="pied_montagne_tuiles.tsx"/>
 <layer id="1" name="pied_montagne" width="21" height="19">
  <data encoding="csv">
1,2,1833,1834,1835,1836,1837,1838,1839,1840,61,1841,1842,1843,85,86,87,1844,1845,1846,121,
122,123,124,125,1847,1848,1849,1850,1851,1852,188,1853,1854,1855,1856,213,1857,1858,1859,1860,241,
242,243,244,245,1861,1862,1863,1864,1865,1866,1867,1868,1869,1870,1871,1872,1873,1874,1875,357,358,
359,360,361,362,363,1876,1877,383,384,1878,1879,1880,1881,428,1882,1883,1884,1885,1886,1887,457,
458,459,460,461,1888,1889,1890,1891,1892,1893,1894,1895,1896,1897,1898,1899,554,555,1900,1901,566,
1902,1903,577,1904,1905,1906,608,1907,1908,1909,1910,1911,643,1912,1913,662,1914,1915,681,682,683,
1916,1917,698,1918,1919,1920,1921,1922,735,1923,739,740,741,1924,1925,750,1926,1927,1928,1929,775,
776,777,778,779,780,781,1930,1931,1932,1933,806,807,808,1934,1935,833,834,835,1936,1937,850,
1938,1939,1940,1941,1942,1943,1944,1945,1946,909,910,1947,1948,933,1949,941,1950,1951,956,957,958,
1952,1953,1954,1955,1956,1957,1958,1959,1960,1961,1962,1963,1964,1965,1966,1967,1968,1969,1970,1971,1972,
1973,1054,1974,1975,1976,1977,1978,1979,1980,1981,1982,1983,1984,1985,1986,1987,1988,1989,1990,1991,1992,
1993,1994,1995,1996,1997,1998,1999,2000,2001,2002,2003,2004,2005,2006,2007,2008,2009,2010,2011,2012,2013,
1394,2014,2015,2016,2017,2018,1425,1426,1427,2019,2020,2021,2022,2023,2024,2025,1483,1484,1485,1486,1487,
1488,2026,2027,2028,2029,1517,1518,2030,2031,2032,2033,2034,2035,2036,1568,2037,1578,1579,1580,1581,1582,
1583,2038,2039,2040,2041,1604,2042,2043,1620,1621,1622,1623,2044,1626,1627,2045,2046,2047,1647,1648,1649,
1650,1651,2048,1661,2049,1668,1669,2050,2051,2052,2053,1691,2054,1695,1696,2055,2056,2057,1706,2058,2059,
1718,2060,2061,2062,2063,2064,1747,1748,1749,2065,2066,1756,2067,2068,2069,1785,1786,1787,1788,1789,1790,
1791,1792,1793,1794,1795,1796,1797,1798,1799,1800,1801,1802,1803,1804,1805,1806,1807,1808,1809,1810,1811,
1812,1813,1814,1815,1816,1817,1818,1819,1820,1821,1822,1823,1824,1825,1826,1827,1828,1829,1830,1831,1832
</data>
 </layer>
</map>
