<?xml version="1.0" encoding="UTF-8"?>
<map version="1.10" tiledversion="1.10.2" orientation="orthogonal" renderorder="right-down" width="21" height="19" tilewidth="24" tileheight="24" infinite="0" nextlayerid="2" nextobjectid="1">
 <properties>
  <property name="zone" value="foret_automne"/>
  <property name="frames" type="int" value="12"/>
  <property name="frame_ms" type="int" value="110"/>
  <property name="tuiles_animees" type="int" value="238"/>
 </properties>
 <tileset firstgid="1" source="foret_automne_tuiles.tsx"/>
 <layer id="1" name="foret_automne" width="21" height="19">
  <data encoding="csv">
1776,1777,1778,1779,25,26,27,28,29,30,31,32,33,34,35,36,1780,1781,1782,1783,49,
1784,1785,1786,71,72,73,74,75,76,77,1787,1788,1789,1790,1791,1792,105,106,107,1793,1794,
1795,1796,132,133,134,135,136,137,138,139,1797,1798,1799,1800,1801,187,188,189,1802,1803,1804,
1805,1806,1807,219,220,221,222,223,224,225,1808,1809,1810,253,254,255,256,257,258,1811,1812,
1813,1814,1815,296,297,298,299,300,301,302,303,1816,1817,1818,1819,1820,319,320,321,1821,1822,
1823,1824,1825,355,356,357,358,359,360,361,362,1826,365,1827,1828,371,372,373,1829,1830,1831,
1832,1833,1834,406,407,408,409,410,411,412,413,414,415,416,417,418,419,420,1835,1836,1837,
1838,1839,454,455,456,457,1840,1841,1842,1843,1844,502,503,504,505,506,507,1845,1846,1847,1848,
1849,1850,1851,1852,1853,1854,1855,1856,1857,1858,1859,607,608,609,610,1860,1861,1862,1863,1864,1865,
1866,1867,1868,1869,1870,1871,1872,1873,1874,1875,730,731,732,733,734,1876,1877,1878,1879,1880,1881,
1882,1883,1884,807,1885,1886,1887,1888,1889,823,824,825,826,827,828,1890,1891,1892,1893,1894,1895,
1896,1897,895,896,897,1898,1899,903,1900,1901,910,1902,1903,1904,944,1905,1906,1907,1908,1909,1910,
1911,1912,997,998,999,1913,1914,1005,1915,1916,1012,1013,1917,1918,1029,1919,1920,1921,1922,1923,1924,
1925,1077,1078,1079,1080,1081,1082,1083,1084,1085,1086,1087,1088,1089,1090,1091,1926,1927,1928,1929,1930,
1931,1932,1933,1140,1141,1934,1935,1936,1161,1162,1163,1164,1165,1166,1167,1168,1937,1938,1939,1940,1941,
1942,1943,1944,1945,1946,1947,1948,1949,1266,1267,1268,1269,1270,1950,1951,1952,1953,1954,1955,1956,1957,
1336,1958,1959,1960,1961,1962,1963,1964,1390,1391,1392,1965,1966,1967,1968,1969,1970,1971,1972,1973,1974,
1975,1976,1977,1978,1979,1980,1981,1982,1983,1984,1985,1986,1987,1988,1989,1990,1991,1992,1993,1994,1995,
1996,1997,1998,1999,2000,2001,2002,2003,2004,2005,2006,2007,1733,1734,1735,2008,2009,2010,2011,2012,2013
</data>
 </layer>
</map>
