<?xml version="1.0" encoding="UTF-8"?>
<map version="1.10" tiledversion="1.10.2" orientation="orthogonal" renderorder="right-down" width="21" height="19" tilewidth="24" tileheight="24" infinite="0" nextlayerid="2" nextobjectid="1">
 <properties>
  <property name="zone" value="falaise_cotiere"/>
  <property name="frames" type="int" value="12"/>
  <property name="frame_ms" type="int" value="110"/>
  <property name="tuiles_animees" type="int" value="188"/>
 </properties>
 <tileset firstgid="1" source="falaise_cotiere_tuiles.tsx"/>
 <layer id="1" name="falaise_cotiere" width="21" height="19">
  <data encoding="csv">
1,1326,1327,1328,1329,1330,1331,1332,1333,72,73,74,75,76,77,78,79,80,81,82,83,
84,1334,1335,1336,1337,1338,1339,1340,1341,145,146,147,148,149,150,151,152,153,154,155,156,
157,1342,1343,1344,1345,186,187,1346,1347,1348,1349,1350,222,223,224,225,1351,1352,246,247,248,
249,1353,252,1354,1355,257,1356,1357,1358,1359,1360,1361,1362,313,314,315,1363,319,320,321,322,
323,324,325,1364,1365,350,1366,1367,1368,1369,379,1370,1371,394,395,396,397,398,399,400,401,
402,403,404,1372,1373,1374,1375,1376,1377,1378,454,455,1379,1380,472,473,474,1381,1382,484,485,
486,487,488,489,1383,1384,1385,1386,1387,1388,1389,1390,1391,1392,565,566,1393,1394,1395,592,593,
594,595,596,597,1396,1397,1398,1399,1400,1401,1402,650,1403,1404,1405,1406,1407,1408,689,690,691,
692,693,694,695,1409,698,1410,702,703,1411,1412,1413,1414,730,1415,1416,1417,739,740,741,742,
743,744,745,746,747,1418,1419,1420,1421,1422,1423,1424,1425,818,1426,1427,1428,852,853,854,855,
856,857,858,859,860,1429,1430,1431,1432,1433,1434,1435,918,919,1436,1437,1438,928,929,930,931,
932,1439,1440,940,941,1441,944,1442,1443,949,950,1444,954,955,956,957,958,959,960,1445,966,
1446,1447,1448,979,980,981,982,983,984,985,986,987,988,989,990,991,992,1449,1450,1451,1452,
1453,1454,1455,1456,1043,1044,1045,1046,1047,1048,1049,1050,1051,1052,1053,1054,1055,1056,1457,1458,1459,
1460,1461,1462,1463,1464,1465,1466,1106,1467,1110,1111,1112,1113,1114,1115,1116,1117,1118,1119,1120,1468,
1469,1470,1471,1472,1473,1474,1475,1476,1477,1478,1479,1167,1168,1169,1170,1171,1172,1173,1174,1175,1176,
1480,1481,1482,1483,1484,1485,1486,1487,1488,1489,1490,1220,1221,1222,1223,1224,1225,1226,1227,1228,1229,
1230,1083,1491,1492,1493,1494,1495,1496,1497,1498,1499,1500,1501,1502,1268,1269,1270,1271,1272,1273,1274,
1083,1275,1276,1503,1504,1505,1506,1507,1508,1509,1510,1511,1512,1513,1319,1320,1321,1322,1323,1324,1325
</data>
 </layer>
</map>
