<?xml version="1.0" encoding="UTF-8"?>
<map version="1.10" tiledversion="1.10.2" orientation="orthogonal" renderorder="right-down" width="21" height="19" tilewidth="24" tileheight="24" infinite="0" nextlayerid="2" nextobjectid="1">
 <properties>
  <property name="zone" value="sommet_montagne"/>
  <property name="frames" type="int" value="12"/>
  <property name="frame_ms" type="int" value="110"/>
  <property name="tuiles_animees" type="int" value="59"/>
 </properties>
 <tileset firstgid="1" source="sommet_montagne_tuiles.tsx"/>
 <layer id="1" name="sommet_montagne" width="21" height="19">
  <data encoding="csv">
1,2,3,4,5,6,7,8,9,10,11,12,13,716,717,31,32,718,38,39,40,
41,42,43,44,45,46,47,48,49,50,51,52,53,719,720,64,65,66,67,68,69,
70,71,72,73,74,75,76,77,78,79,80,81,721,722,94,95,96,97,98,99,100,
101,102,103,104,105,106,107,108,109,110,111,112,723,724,725,131,132,133,134,135,136,
137,138,139,140,141,142,143,144,145,146,147,148,149,150,151,152,153,154,155,156,157,
158,159,160,161,162,163,164,165,166,167,168,169,170,171,172,173,174,175,176,177,178,
179,180,181,182,183,184,185,186,187,188,189,726,727,211,212,213,214,215,216,217,218,
219,220,221,222,223,224,225,226,227,228,229,728,729,240,241,242,243,244,245,246,247,
248,730,731,255,256,732,266,267,268,733,276,734,735,289,290,291,292,293,736,737,312,
313,738,739,332,333,740,341,342,741,742,353,354,355,356,357,358,359,360,361,362,363,
364,743,370,371,372,373,374,375,376,377,378,744,745,392,746,747,405,406,407,408,409,
748,749,750,432,433,434,435,436,437,438,439,751,752,446,753,754,465,466,467,468,469,
470,755,474,475,476,477,478,479,480,481,756,757,500,501,502,503,504,505,506,507,508,
509,510,511,512,513,758,523,524,525,526,759,760,761,545,546,547,548,549,550,551,552,
553,554,555,556,557,762,562,563,564,565,566,763,764,571,572,765,576,577,766,767,590,
591,592,593,594,595,596,597,598,599,768,769,770,629,630,631,632,633,634,771,772,646,
647,648,649,650,651,652,653,654,655,773,774,664,665,666,667,668,669,670,671,672,673,
674,675,676,677,678,679,680,681,682,683,684,685,686,687,688,689,690,691,692,693,694,
695,696,697,698,699,700,701,702,703,704,705,706,707,708,709,710,711,712,713,714,715
</data>
 </layer>
</map>
