<?xml version="1.0" encoding="UTF-8"?>
<map version="1.10" tiledversion="1.10.2" orientation="orthogonal" renderorder="right-down" width="21" height="19" tilewidth="24" tileheight="24" infinite="0" nextlayerid="2" nextobjectid="1">
 <properties>
  <property name="zone" value="clairiere_b2f"/>
  <property name="frames" type="int" value="24"/>
  <property name="frame_ms" type="int" value="110"/>
  <property name="tuiles_animees" type="int" value="358"/>
 </properties>
 <tileset firstgid="1" source="clairiere_b2f_tuiles.tsx"/>
 <layer id="1" name="clairiere_b2f" width="21" height="19">
  <data encoding="csv">
2400,2401,2402,2403,2404,2405,2406,2407,2408,2409,2410,2411,2412,2413,2414,2415,56,2416,2417,2418,2419,
2420,2421,2422,2423,2424,2425,2426,2427,2428,2429,2430,2431,2432,2433,2434,2435,2436,2437,2438,2439,2440,
2441,2442,2443,2444,2445,2446,2447,2448,2449,2450,2451,2452,2453,2454,2455,2456,295,2457,2458,2459,2460,
2461,2462,2463,2464,2465,2466,2467,2468,2469,373,2470,2471,2472,2473,2474,2475,421,2476,2477,2478,2479,
2480,2481,2482,2483,2484,2485,490,2486,493,2487,2488,2489,2490,2491,2492,2493,2494,2495,2496,2497,2498,
2499,2500,2501,2502,2503,615,2504,2505,2506,2507,2508,2509,2510,2511,2512,2513,2514,2515,2516,2517,2518,
2519,2520,2521,2522,2523,749,750,751,752,753,754,2524,2525,2526,2527,2528,2529,2530,2531,2532,2533,
2534,2535,2536,2537,2538,2539,2540,2541,2542,2543,2544,2545,2546,2547,2548,2549,2550,2551,2552,2553,2554,
2555,2556,2557,2558,2559,2560,2561,2562,995,996,997,2563,2564,2565,2566,2567,2568,2569,2570,2571,2572,
2573,2574,2575,2576,2577,2578,1126,2579,2580,1142,1143,1144,2581,2582,2583,2584,2585,2586,2587,2588,2589,
2590,2591,2592,2593,2594,2595,2596,2597,2598,1279,1280,1281,2599,2600,2601,2602,1311,1312,2603,2604,2605,
1336,2606,2607,2608,2609,1359,1360,2610,2611,1378,1379,1380,1381,2612,2613,2614,1400,2615,2616,2617,2618,
2619,2620,2621,2622,2623,2624,2625,2626,2627,1492,1493,2628,2629,2630,2631,2632,2633,2634,2635,2636,2637,
2638,2639,2640,2641,2642,2643,2644,2645,2646,1622,1623,2647,2648,2649,2650,2651,2652,2653,2654,2655,2656,
2657,2658,2659,2660,2661,2662,2663,2664,2665,2666,2667,2668,2669,2670,2671,2672,2673,2674,2675,2676,2677,
2678,2679,2680,2681,2682,2683,2684,2685,2686,2687,2688,2689,2690,2691,2692,2693,2694,2695,2696,2697,2698,
2699,2700,2701,2702,2703,2704,2705,2706,2707,2708,2709,2710,2711,2712,2713,2714,2715,2716,2717,2718,2719,
2720,2721,2722,2723,2724,2725,2726,2727,2728,2729,2730,2731,2732,2733,2734,2735,2736,2737,2738,2739,2740,
2741,2742,2743,2744,2745,2746,2747,2361,2362,2363,2364,2748,2749,2750,2751,2752,2753,2754,2755,2756,2757
</data>
 </layer>
</map>
