<?xml version="1.0" encoding="UTF-8"?>
<map version="1.10" tiledversion="1.10.2" orientation="orthogonal" renderorder="right-down" width="21" height="19" tilewidth="24" tileheight="24" infinite="0" nextlayerid="2" nextobjectid="1">
 <properties>
  <property name="zone" value="clairiere"/>
  <property name="frames" type="int" value="24"/>
  <property name="frame_ms" type="int" value="110"/>
  <property name="tuiles_animees" type="int" value="307"/>
 </properties>
 <tileset firstgid="1" source="clairiere_tuiles.tsx"/>
 <layer id="1" name="clairiere" width="21" height="19">
  <data encoding="csv">
1727,1728,1729,1730,1731,16,1732,1733,1734,1735,1736,1737,32,1738,1739,1740,1741,1742,1743,1744,48,
1745,1746,1747,1748,1749,1750,1751,1752,1753,93,94,95,1754,1755,1756,109,1757,112,1758,1759,1760,
1761,1762,1763,1764,1765,1766,1767,1768,1769,1770,1771,1772,1773,1774,1775,1776,1777,1778,1779,1780,1781,
1782,1783,1784,1785,1786,1787,280,281,282,1788,1789,1790,1791,314,315,316,1792,1793,1794,1795,1796,
1797,1798,366,1799,1800,371,372,373,1801,1802,1803,1804,1805,1806,1807,1808,1809,1810,1811,1812,1813,
1814,1815,1816,1817,1818,1819,1820,1821,1822,1823,1824,1825,1826,1827,1828,1829,1830,1831,1832,1833,1834,
1835,1836,1837,1838,1839,1840,635,1841,1842,1843,1844,1845,1846,1847,1848,1849,1850,1851,1852,1853,722,
1854,1855,1856,1857,744,745,1858,1859,762,763,1860,1861,1862,1863,1864,1865,1866,823,824,1867,827,
1868,1869,1870,1871,1872,859,860,1873,1874,870,871,872,1875,1876,1877,1878,1879,1880,1881,1882,1883,
1884,1885,1886,1887,1888,1889,1890,1891,1892,974,975,976,977,978,979,1893,1894,1895,1896,1897,1898,
1899,1900,1901,1038,1902,1903,1904,1905,1906,1071,1072,1073,1074,1075,1907,1908,1082,1083,1909,1910,1911,
1912,1913,1914,1915,1916,1917,1918,1919,1920,1157,1158,1159,1160,1161,1162,1921,1922,1923,1924,1925,1926,
1927,1928,1193,1929,1930,1931,1932,1933,1934,1223,1224,1225,1935,1936,1937,1938,1939,1940,1941,1942,1943,
1944,1945,1946,1947,1948,1949,1950,1951,1952,1315,1953,1954,1955,1956,1957,1958,1959,1960,1961,1962,1963,
1964,1965,1966,1967,1968,1969,1970,1971,1972,1413,1414,1415,1416,1973,1974,1975,1976,1977,1978,1979,1980,
1981,1982,1983,1458,1459,1984,1985,1986,1987,1486,1487,1488,1489,1490,1491,1492,1988,1989,1990,1991,1992,
1993,1994,1995,1548,1549,1550,1996,1997,1998,1580,1581,1582,1583,1584,1999,2000,2001,2002,2003,2004,2005,
2006,2007,2008,2009,2010,2011,2012,2013,2014,1661,1662,1663,2015,2016,2017,2018,2019,2020,2021,2022,2023,
2024,2025,1695,2026,2027,2028,2029,1706,1707,1708,1709,1710,1711,1712,1713,1714,1715,2030,2031,2032,2033
</data>
 </layer>
</map>
