<?xml version="1.0" encoding="UTF-8"?>
<map version="1.10" tiledversion="1.10.2" orientation="orthogonal" renderorder="right-down" width="21" height="19" tilewidth="24" tileheight="24" infinite="0" nextlayerid="2" nextobjectid="1">
 <properties>
  <property name="zone" value="arene_distorsion_nu"/>
  <property name="frames" type="int" value="24"/>
  <property name="frame_ms" type="int" value="110"/>
  <property name="tuiles_animees" type="int" value="129"/>
 </properties>
 <tileset firstgid="1" source="arene_distorsion_nu_tuiles.tsx"/>
 <layer id="1" name="arene_distorsion_nu" width="21" height="19">
  <data encoding="csv">
1,1,1,1,1,1,1,1,1,1,1,1,1,1,1,1,1,1,1,1,1,
700,701,702,703,704,705,706,707,708,709,710,711,712,713,714,715,716,717,718,719,720,
721,722,723,724,725,726,727,728,729,730,731,732,733,734,735,736,737,738,739,740,741,
742,743,744,745,746,747,748,749,750,751,752,753,754,755,756,757,758,759,760,761,762,
239,240,241,242,243,244,245,242,242,242,242,246,247,248,249,250,251,242,252,253,254,
255,256,257,242,258,259,260,261,262,263,264,265,266,267,268,269,270,271,272,273,274,
239,275,276,277,278,279,280,281,282,283,284,285,286,287,288,289,290,291,292,293,294,
239,295,296,297,298,299,300,301,302,303,304,305,306,307,308,309,310,311,312,313,314,
239,315,316,317,318,319,320,321,322,323,324,325,326,327,328,329,330,331,332,333,334,
239,335,336,337,338,339,340,341,342,343,344,345,346,347,348,349,350,351,352,353,354,
239,295,355,356,357,358,359,360,361,362,363,364,365,366,367,368,369,370,371,372,373,
239,374,375,376,377,378,379,380,381,382,383,384,385,386,387,388,389,390,391,392,393,
239,295,394,395,396,397,398,399,400,401,402,403,404,405,406,407,408,409,410,411,412,
239,295,394,413,414,415,416,417,418,419,420,421,422,423,424,425,426,427,428,429,430,
239,295,394,242,242,431,432,433,434,435,436,437,438,439,440,441,242,242,442,443,444,
763,764,765,766,767,768,769,770,771,772,483,773,774,775,776,777,778,779,780,781,782,
783,784,785,786,787,788,789,790,791,792,564,793,794,795,796,797,798,799,800,801,802,
803,804,805,806,807,808,809,810,811,812,640,813,814,815,816,817,818,819,820,821,822,
1,1,1,1,1,1,1,823,824,825,689,826,827,828,1,1,1,1,1,1,1
</data>
 </layer>
</map>
