<?xml version="1.0" encoding="UTF-8"?>
<map version="1.10" tiledversion="1.10.2" orientation="orthogonal" renderorder="right-down" width="21" height="19" tilewidth="24" tileheight="24" infinite="0" nextlayerid="2" nextobjectid="1">
 <properties>
  <property name="zone" value="lac_foret"/>
  <property name="frames" type="int" value="24"/>
  <property name="frame_ms" type="int" value="110"/>
  <property name="tuiles_animees" type="int" value="343"/>
 </properties>
 <tileset firstgid="1" source="lac_foret_tuiles.tsx"/>
 <layer id="1" name="lac_foret" width="21" height="19">
  <data encoding="csv">
2126,2127,12,13,14,2128,2129,2130,2131,32,33,34,2132,37,38,2133,2134,2135,2136,2137,2138,
2139,2140,2141,2142,2143,2144,2145,2146,2147,2148,2149,2150,2151,2152,2153,2154,2155,2156,2157,2158,2159,
2160,2161,2162,2163,2164,2165,2166,2167,2168,2169,2170,2171,2172,2173,2174,2175,2176,2177,2178,2179,2180,
2181,2182,2183,2184,2185,2186,2187,2188,2189,432,2190,432,2191,2192,2193,2194,2195,2196,2197,2198,2199,
2200,2201,2202,432,2203,2204,2205,2206,2207,432,2208,548,432,2209,2210,2211,2212,2213,2214,2215,2216,
2217,2218,2219,432,2220,2221,2222,2223,2224,627,2225,2226,432,432,432,2227,2228,2229,2230,2231,2232,
2233,2234,2235,691,692,2236,2237,701,702,703,2238,2239,2240,2241,2242,2243,2244,2245,2246,2247,2248,
2249,2250,2251,2252,799,432,432,432,2253,2254,2255,432,2256,2257,2258,2259,2260,2261,2262,2263,2264,
2265,2266,891,892,2267,2268,432,432,432,904,905,2269,2270,912,2271,2272,2273,2274,2275,2276,2277,
2278,2279,2280,2281,2282,2283,2284,432,2285,2286,432,2287,2288,2289,2290,2291,2292,2293,2294,2295,2296,
2297,2298,2299,2300,2301,432,432,432,2302,2303,432,1099,2304,2305,2306,2307,2308,2309,2310,2311,2312,
2313,2314,2315,2316,2317,432,432,2318,2319,2320,2321,2322,2323,2324,2325,2326,2327,432,1214,2328,2329,
2330,2331,2332,2333,2334,2335,2336,2337,2338,2339,2340,2341,2342,2343,2344,2345,432,432,2346,2347,2348,
2349,2350,2351,2352,2353,2354,2355,2356,2357,2358,2359,2360,2361,2362,2363,2364,1473,2365,2366,2367,2368,
2369,2370,2371,2372,2373,2374,2375,2376,2377,2378,2379,2380,2381,2382,2383,2384,2385,2386,2387,2388,2389,
2390,2391,2392,2393,2394,2395,2396,2397,2398,2399,2400,2401,2402,2403,2404,2405,2406,2407,2408,2409,2410,
2411,2412,2413,2414,2415,2416,2417,2418,2419,2420,2421,2422,2423,2424,2425,2426,2427,2428,2429,2430,2431,
2432,2433,2434,2435,2436,2437,2438,2439,2440,2441,2442,2443,2444,2445,2446,2447,2448,2449,2450,2451,2452,
2453,2454,2455,2456,2457,2458,2459,2460,2093,2094,2095,2096,2461,2462,2463,2105,2464,2465,2466,2467,2468
</data>
 </layer>
</map>
