<?xml version="1.0" encoding="UTF-8"?>
<map version="1.10" tiledversion="1.10.2" orientation="orthogonal" renderorder="right-down" width="21" height="19" tilewidth="24" tileheight="24" infinite="0" nextlayerid="4" nextobjectid="1">
 <imagelayer id="1" name="0_terrain">
  <properties>
   <property name="anime" value="non"/>
   <property name="technique" value=""/>
  </properties>
  <image source="calques/terrain.png" width="504" height="456"/>
 </imagelayer>
 <imagelayer id="2" name="1_water">
  <properties>
   <property name="anime" value="oui"/>
   <property name="technique" value="palette cycling EoS : indices figes, 16 entrees (3 nuances plates + 12 reflets cycles + ecume), tramage ordonne 4x4, un pas toutes les 330 ms"/>
  </properties>
  <image source="calques/water.png" width="504" height="456"/>
 </imagelayer>
 <imagelayer id="3" name="2_props">
  <properties>
   <property name="anime" value="oui"/>
   <property name="technique" value="cisaillement vertical, base fixe"/>
  </properties>
  <image source="calques/props.png" width="504" height="456"/>
 </imagelayer>
</map>
