<?xml version="1.0" encoding="UTF-8"?>
<map version="1.10" tiledversion="1.10.2" orientation="orthogonal" renderorder="right-down" width="21" height="19" tilewidth="24" tileheight="24" infinite="0" nextlayerid="2" nextobjectid="1">
 <properties>
  <property name="zone" value="cristal"/>
  <property name="frames" type="int" value="12"/>
  <property name="frame_ms" type="int" value="110"/>
  <property name="tuiles_animees" type="int" value="50"/>
 </properties>
 <tileset firstgid="1" source="cristal_tuiles.tsx"/>
 <layer id="1" name="cristal" width="21" height="19">
  <data encoding="csv">
1,2,3,4,5,6,7,8,9,10,11,12,13,14,15,16,17,18,19,20,21,
22,23,24,25,26,27,28,29,30,31,32,33,34,35,36,37,38,39,40,41,42,
43,44,45,46,47,48,810,811,55,56,57,58,59,60,61,62,63,64,65,66,67,
68,69,70,71,72,73,812,813,92,93,94,95,96,97,98,99,100,101,102,103,104,
105,814,815,116,117,118,119,120,121,122,123,124,125,126,127,118,128,129,130,131,132,
133,816,817,144,145,146,147,148,149,150,151,152,153,154,155,156,157,158,818,819,165,
166,167,168,169,170,171,820,821,187,188,189,190,191,192,193,194,195,822,823,824,215,
216,217,218,219,220,221,825,826,236,237,238,239,240,241,242,243,244,245,246,247,248,
249,250,251,252,253,254,255,256,257,258,259,260,261,262,263,827,828,829,830,831,832,
327,328,329,330,331,332,333,334,335,336,337,338,339,340,833,834,835,836,837,838,839,
425,426,427,428,429,430,431,432,433,434,435,436,437,438,840,841,842,843,844,845,846,
523,524,525,526,527,528,529,530,531,532,533,534,535,536,847,848,849,850,851,852,853,
621,622,623,624,625,626,627,628,629,630,854,855,641,642,643,856,857,858,859,685,686,
687,688,689,690,691,692,693,694,695,696,697,698,699,700,701,702,703,704,705,706,707,
708,709,710,711,712,713,714,715,716,717,718,719,720,721,722,723,724,725,726,727,728,
729,730,731,732,733,734,735,736,737,738,739,740,741,742,743,744,745,746,747,748,749,
750,751,752,753,754,755,756,757,758,759,760,761,762,763,764,765,766,767,768,769,770,
771,772,773,774,775,776,777,778,779,780,781,782,783,784,785,786,787,788,789,790,791,
792,793,794,794,794,794,795,796,797,798,799,800,801,802,803,804,805,806,807,808,809
</data>
 </layer>
</map>
