<?xml version="1.0" encoding="UTF-8"?>
<map version="1.10" tiledversion="1.10.2" orientation="orthogonal" renderorder="right-down" width="21" height="19" tilewidth="24" tileheight="24" infinite="0" nextlayerid="2" nextobjectid="1">
 <properties>
  <property name="zone" value="arene_cristal_nu"/>
  <property name="frames" type="int" value="24"/>
  <property name="frame_ms" type="int" value="110"/>
  <property name="tuiles_animees" type="int" value="179"/>
 </properties>
 <tileset firstgid="1" source="arene_cristal_nu_tuiles.tsx"/>
 <layer id="1" name="arene_cristal_nu" width="21" height="19">
  <data encoding="csv">
1,2,2,2,2,784,785,786,787,788,789,790,791,792,793,794,2,2,2,2,33,
1,795,796,797,798,799,800,801,802,803,804,805,806,807,808,809,810,811,812,99,100,
813,814,815,111,111,111,111,111,816,817,111,118,818,819,820,821,111,111,822,823,824,
825,826,827,111,111,828,829,830,831,832,833,834,835,836,837,838,111,111,839,840,841,
842,843,844,845,846,847,848,230,231,232,233,234,235,849,850,851,852,853,854,855,856,
857,858,859,860,277,278,279,280,281,282,283,284,285,286,287,288,289,290,861,862,863,
864,865,311,312,313,314,315,316,317,318,319,320,321,322,323,324,325,326,327,866,867,
868,869,344,345,346,347,348,349,350,351,352,353,354,355,356,357,358,359,360,870,871,
872,873,377,378,379,380,352,352,352,352,352,352,381,382,383,384,385,386,387,874,875,
876,400,401,402,352,352,352,352,352,352,352,352,403,404,405,406,352,407,408,409,877,
878,418,419,420,421,352,422,423,352,352,352,352,424,425,426,427,352,428,429,430,879,
880,881,443,444,445,446,447,448,449,450,352,451,452,453,454,455,456,457,458,882,883,
884,885,475,476,477,478,479,480,481,352,482,483,484,485,486,487,488,489,490,886,887,
888,889,890,891,514,515,516,517,518,519,520,521,522,523,524,525,526,892,893,894,895,
896,897,898,899,900,901,902,564,565,566,567,568,569,570,903,904,905,906,907,908,909,
910,911,912,111,111,913,914,915,916,917,622,918,919,920,921,922,111,111,923,924,925,
1,926,927,111,111,111,111,928,929,930,669,931,932,111,111,111,111,111,933,934,935,
1,687,936,937,938,939,940,941,942,943,717,944,945,946,947,948,949,950,951,743,1,
1,744,745,746,746,952,953,954,955,956,765,957,958,959,960,961,962,782,783,746,1
</data>
 </layer>
</map>
