<?xml version="1.0" encoding="UTF-8"?>
<map version="1.10" tiledversion="1.10.2" orientation="orthogonal" renderorder="right-down" width="21" height="19" tilewidth="24" tileheight="24" infinite="0" nextlayerid="2" nextobjectid="1">
 <properties>
  <property name="zone" value="banquise_glacier"/>
  <property name="frames" type="int" value="12"/>
  <property name="frame_ms" type="int" value="110"/>
  <property name="tuiles_animees" type="int" value="84"/>
 </properties>
 <tileset firstgid="1" source="banquise_glacier_tuiles.tsx"/>
 <layer id="1" name="banquise_glacier" width="21" height="19">
  <data encoding="csv">
1,2,3,4,5,6,7,8,9,10,11,12,13,14,15,16,598,599,600,601,29,
30,31,32,33,34,602,603,42,43,44,45,46,47,48,49,604,605,606,607,608,65,
66,67,68,69,70,609,610,77,611,612,86,87,88,89,90,91,92,93,94,95,96,
97,98,99,100,101,102,613,106,107,108,109,110,111,112,113,114,115,116,117,118,119,
120,121,122,123,124,614,615,130,131,132,133,134,135,136,137,138,139,140,616,617,147,
148,149,150,151,152,153,154,155,156,157,158,159,160,161,162,163,164,165,166,618,170,
171,172,173,174,175,176,177,178,179,180,181,182,183,184,185,619,620,621,622,623,624,
206,207,208,209,210,625,214,215,216,217,218,219,220,221,222,223,224,626,627,628,629,
237,238,239,240,241,242,243,244,245,246,247,248,630,631,255,256,257,258,259,260,261,
262,263,264,265,266,267,268,269,270,632,633,634,635,636,286,287,288,289,290,291,292,
293,637,638,302,303,304,305,639,640,641,642,318,319,320,321,322,323,324,325,326,327,
328,329,330,331,332,333,334,335,336,337,338,339,340,341,342,343,344,345,346,347,348,
349,350,351,352,353,354,355,356,357,358,359,360,643,365,366,367,368,369,370,371,372,
373,374,375,644,645,382,383,384,646,388,389,390,647,394,395,396,648,649,405,406,407,
408,409,410,411,412,413,650,651,420,652,653,427,428,654,655,656,657,658,659,660,457,
458,459,460,461,462,463,464,465,661,662,472,473,474,663,664,665,666,484,667,668,497,
498,499,669,503,504,505,506,507,508,509,510,511,512,670,671,672,673,674,675,676,541,
542,543,544,545,546,547,548,549,550,551,552,553,554,555,677,678,679,680,681,575,576,
577,578,579,580,581,582,583,584,585,586,587,588,589,590,591,592,593,594,595,596,597
</data>
 </layer>
</map>
