<?xml version="1.0" encoding="UTF-8"?>
<map version="1.10" tiledversion="1.10.2" orientation="orthogonal" renderorder="right-down" width="21" height="19" tilewidth="24" tileheight="24" infinite="0" nextlayerid="7" nextobjectid="1">
 <imagelayer id="1" name="0_Base">
  <properties>
   <property name="anime" value="non"/>
   <property name="technique" value="1 dessin(s), tenue 24 frames, 3591 tuiles 8px dont 0 animees"/>
  </properties>
  <image source="calques/Base.png" width="504" height="456"/>
 </imagelayer>
 <imagelayer id="2" name="2_Cliffs">
  <properties>
   <property name="anime" value="non"/>
   <property name="technique" value="1 dessin(s), tenue 24 frames, 384 tuiles 8px dont 0 animees"/>
  </properties>
  <image source="calques/Cliffs.png" width="504" height="456"/>
 </imagelayer>
 <imagelayer id="3" name="3_Shadows">
  <properties>
   <property name="anime" value="non"/>
   <property name="technique" value="1 dessin(s), tenue 24 frames, 451 tuiles 8px dont 0 animees"/>
  </properties>
  <image source="calques/Shadows.png" width="504" height="456"/>
 </imagelayer>
 <imagelayer id="4" name="4_Objects Under">
  <properties>
   <property name="anime" value="non"/>
   <property name="technique" value="1 dessin(s), tenue 6 frames, 50 tuiles 8px dont 0 animees"/>
  </properties>
  <image source="calques/Objects Under.png" width="504" height="456"/>
 </imagelayer>
 <imagelayer id="5" name="5_Objects">
  <properties>
   <property name="anime" value="non"/>
   <property name="technique" value="1 dessin(s), tenue 3 frames, 776 tuiles 8px dont 0 animees"/>
  </properties>
  <image source="calques/Objects.png" width="504" height="456"/>
 </imagelayer>
 <imagelayer id="6" name="7_Fringe">
  <properties>
   <property name="anime" value="non"/>
   <property name="technique" value="1 dessin(s), tenue 24 frames, 69 tuiles 8px dont 0 animees"/>
  </properties>
  <image source="calques/Fringe.png" width="504" height="456"/>
 </imagelayer>
</map>
