<?xml version="1.0" encoding="UTF-8"?>
<map version="1.10" tiledversion="1.10.2" orientation="orthogonal" renderorder="right-down" width="21" height="19" tilewidth="24" tileheight="24" infinite="0" nextlayerid="2" nextobjectid="1">
 <properties>
  <property name="zone" value="canyon_desert"/>
  <property name="frames" type="int" value="12"/>
  <property name="frame_ms" type="int" value="110"/>
  <property name="tuiles_animees" type="int" value="52"/>
 </properties>
 <tileset firstgid="1" source="canyon_desert_tuiles.tsx"/>
 <layer id="1" name="canyon_desert" width="21" height="19">
  <data encoding="csv">
1,2,3,526,527,11,12,528,529,19,20,21,22,23,24,25,26,530,531,34,35,
36,532,533,534,535,52,53,536,537,60,538,539,69,70,71,72,73,540,541,82,83,
84,85,86,542,543,544,95,96,97,98,99,100,101,102,103,104,105,545,546,112,113,
114,115,116,117,547,548,123,124,125,126,127,128,549,550,137,138,139,140,141,142,143,
144,145,146,147,148,149,150,151,152,153,154,155,156,157,158,159,551,552,166,167,168,
169,170,171,172,173,174,175,176,177,178,179,180,181,182,183,184,553,554,191,192,193,
194,195,196,197,198,199,200,201,202,555,556,211,212,213,214,215,216,217,218,219,220,
221,222,557,227,228,229,230,231,232,233,234,235,236,237,558,559,246,247,248,249,250,
251,252,560,256,257,258,259,260,261,262,263,264,265,266,267,268,269,270,271,272,273,
274,275,561,562,563,286,287,564,565,566,297,298,299,300,301,302,303,304,305,306,307,
308,309,567,568,316,317,318,319,320,321,322,323,324,325,326,327,328,329,330,331,332,
333,334,335,336,337,338,339,340,341,342,343,344,345,346,347,348,349,350,351,352,353,
354,355,356,357,358,359,360,361,362,363,364,365,366,367,368,369,370,371,372,373,374,
375,376,377,378,379,380,381,382,383,384,385,386,387,388,569,570,397,398,399,400,401,
402,403,404,405,406,407,408,409,410,411,571,572,420,573,574,575,433,434,435,436,437,
438,439,440,441,442,443,444,445,446,447,448,449,576,577,456,457,458,459,460,461,462,
463,464,465,466,467,468,469,470,471,472,473,474,475,476,477,478,479,480,481,482,483,
484,485,486,487,488,489,490,491,492,493,494,495,496,497,498,499,500,501,502,503,504,
505,506,507,508,509,510,511,512,513,514,515,516,517,518,519,520,521,522,523,524,525
</data>
 </layer>
</map>
