<?xml version="1.0" encoding="UTF-8"?>
<map version="1.10" tiledversion="1.10.2" orientation="orthogonal" renderorder="right-down" width="21" height="19" tilewidth="24" tileheight="24" infinite="0" nextlayerid="2" nextobjectid="1">
 <properties>
  <property name="zone" value="entree_grotte"/>
  <property name="frames" type="int" value="12"/>
  <property name="frame_ms" type="int" value="110"/>
  <property name="tuiles_animees" type="int" value="139"/>
 </properties>
 <tileset firstgid="1" source="entree_grotte_tuiles.tsx"/>
 <layer id="1" name="entree_grotte" width="21" height="19">
  <data encoding="csv">
1,2,3,4,5,6,7,8,1268,14,15,16,17,18,19,20,21,22,23,24,25,
26,27,1269,1270,1271,1272,66,67,1273,1274,84,85,86,87,88,89,1275,1276,1277,119,120,
121,122,1278,1279,1280,1281,1282,163,164,165,166,167,168,169,170,1283,1284,1285,1286,1287,211,
212,213,214,1288,1289,229,230,231,232,233,234,235,236,237,238,1290,1291,1292,1293,1294,264,
265,266,267,1295,1296,1297,1298,303,304,305,306,307,308,309,310,311,1299,314,1300,317,318,
319,320,321,1301,331,332,333,334,335,336,1302,1303,351,352,353,354,355,356,357,358,359,
1304,1305,1306,1307,1308,1309,416,417,418,1310,1311,1312,1313,451,452,453,454,455,456,457,458,
459,460,461,1314,1315,480,1316,1317,487,1318,1319,1320,505,506,507,508,1321,1322,1323,538,539,
540,1324,1325,1326,565,566,1327,1328,1329,1330,608,1331,1332,623,624,625,1333,1334,1335,1336,644,
645,1337,1338,1339,654,655,1340,1341,675,1342,1343,1344,1345,1346,710,711,712,713,1347,1348,726,
727,728,729,730,731,732,1349,740,741,742,743,1350,1351,1352,765,766,1353,1354,780,781,782,
783,784,785,786,787,1355,1356,1357,816,817,818,819,820,821,822,823,1358,1359,1360,840,841,
842,1361,1362,1363,1364,875,876,877,878,1365,1366,1367,1368,1369,915,916,917,918,919,920,921,
922,1370,1371,1372,1373,965,966,1374,1375,1376,1377,1378,1005,1006,1007,1008,1009,1010,1011,1012,1013,
1014,1015,1379,1018,1380,1021,1381,1382,1383,1384,1385,1386,1387,1100,1101,1102,1388,1389,1112,1113,1114,
1115,1116,1390,1119,1391,1122,1392,1393,1394,1395,1396,1397,1398,1150,1151,1152,1399,1400,1160,1161,1162,
1163,1164,1165,1166,1167,1401,1402,1190,1191,1403,1404,1210,1211,1212,1213,1214,1215,1216,1217,1218,1219,
1220,1221,1222,1223,1224,1405,1406,1233,1234,1235,1236,1237,1238,1239,1240,1241,1242,1243,1244,1245,1246,
1247,1248,1249,1250,1251,1252,1253,1254,1255,1256,1257,1258,1259,1260,1261,1262,1263,1264,1265,1266,1267
</data>
 </layer>
</map>
