<?xml version="1.0" encoding="UTF-8"?>
<map version="1.10" tiledversion="1.10.2" orientation="orthogonal" renderorder="right-down" width="21" height="19" tilewidth="24" tileheight="24" infinite="0" nextlayerid="2" nextobjectid="1">
 <properties>
  <property name="zone" value="prairie"/>
  <property name="frames" type="int" value="12"/>
  <property name="frame_ms" type="int" value="110"/>
  <property name="tuiles_animees" type="int" value="280"/>
 </properties>
 <tileset firstgid="1" source="prairie_tuiles.tsx"/>
 <layer id="1" name="prairie" width="21" height="19">
  <data encoding="csv">
2380,2381,11,12,13,14,15,2382,2383,2384,2385,2386,2387,2388,2389,2390,2391,63,2392,2393,75,
2394,2395,2396,2397,2398,2399,107,2400,2401,117,118,119,120,121,122,123,2402,126,127,2403,2404,
2405,2406,2407,152,2408,2409,159,2410,169,170,171,2411,181,182,183,184,2412,2413,2414,2415,2416,
2417,2418,2419,255,256,257,258,2420,2421,2422,2423,297,298,299,300,301,2424,2425,2426,2427,340,
2428,2429,2430,2431,365,366,367,2432,2433,2434,2435,380,381,382,383,384,2436,2437,2438,2439,2440,
2441,2442,2443,2444,460,461,462,463,2445,2446,2447,2448,498,499,500,2449,2450,2451,2452,2453,2454,
2455,2456,2457,583,584,585,586,2458,2459,2460,2461,2462,2463,2464,2465,2466,2467,2468,2469,2470,2471,
2472,2473,736,737,738,739,740,2474,2475,2476,765,2477,2478,2479,2480,2481,2482,2483,2484,851,2485,
2486,2487,863,864,865,866,867,2488,2489,2490,2491,2492,2493,2494,2495,2496,2497,2498,2499,2500,2501,
2502,2503,999,1000,1001,1002,2504,2505,2506,2507,2508,2509,2510,2511,2512,2513,1106,1107,1108,1109,1110,
2514,2515,1126,1127,2516,1137,2517,2518,2519,2520,2521,2522,1210,2523,2524,2525,1236,2526,2527,2528,2529,
2530,2531,1280,2532,2533,2534,2535,2536,2537,1343,1344,2538,2539,2540,2541,2542,2543,2544,2545,2546,2547,
2548,2549,2550,2551,2552,2553,2554,1500,1501,2555,2556,2557,2558,2559,2560,2561,2562,2563,2564,2565,2566,
2567,2568,2569,2570,2571,2572,2573,1668,1669,1670,1671,1672,1673,2574,2575,2576,2577,2578,2579,2580,2581,
2582,2583,2584,2585,1746,2586,1756,1757,1758,1759,1760,1761,1762,1763,1764,1765,1766,1767,1768,2587,2588,
2589,2590,2591,1807,2592,2593,2594,2595,2596,1852,1853,1854,1855,1856,1857,1858,1859,2597,2598,2599,2600,
2601,2602,2603,2604,2605,2606,2607,2608,2609,1982,1983,2610,2611,2612,2613,2614,2615,2616,2617,2618,2619,
2620,2621,2622,2623,2624,2625,2626,2627,2628,2629,2630,2631,2632,2633,2634,2635,2636,2637,2638,2639,2640,
2641,2642,2643,2644,2645,2646,2647,2648,2649,2650,2651,2652,2337,2338,2653,2654,2655,2656,2657,2658,2659
</data>
 </layer>
</map>
