<?xml version="1.0" encoding="UTF-8"?>
<map version="1.10" tiledversion="1.10.2" orientation="orthogonal" renderorder="right-down" width="21" height="19" tilewidth="24" tileheight="24" infinite="0" nextlayerid="2" nextobjectid="1">
 <properties>
  <property name="zone" value="gorge_pont"/>
  <property name="frames" type="int" value="12"/>
  <property name="frame_ms" type="int" value="110"/>
  <property name="tuiles_animees" type="int" value="150"/>
 </properties>
 <tileset firstgid="1" source="gorge_pont_tuiles.tsx"/>
 <layer id="1" name="gorge_pont" width="21" height="19">
  <data encoding="csv">
1,2,3,4,990,991,992,993,34,35,994,995,996,48,49,50,51,52,997,998,63,
64,65,66,67,68,69,70,71,72,73,999,1000,1001,86,87,88,89,90,1002,94,95,
96,97,98,99,100,101,102,103,104,1003,1004,1005,1006,120,121,122,1007,1008,145,146,147,
148,149,150,151,152,153,154,155,1009,1010,1011,1012,1013,181,182,183,1014,1015,1016,207,208,
209,210,211,212,213,214,215,216,1017,1018,1019,1020,1021,251,252,1022,260,1023,1024,266,267,
268,269,270,271,272,273,274,275,1025,1026,1027,1028,1029,296,1030,1031,1032,316,317,318,319,
320,321,322,323,324,325,1033,1034,333,1035,1036,1037,1038,350,351,352,353,354,355,356,357,
358,359,360,361,362,363,364,365,366,1039,1040,1041,1042,1043,394,395,396,397,398,399,400,
401,402,403,404,405,406,407,1044,1045,1046,1047,1048,1049,1050,439,440,441,442,443,444,445,
446,447,448,449,450,451,452,1051,1052,1053,1054,1055,1056,479,480,1057,1058,498,499,500,501,
502,503,504,1059,1060,525,526,1061,1062,1063,1064,1065,1066,1067,1068,1069,1070,578,579,580,581,
582,583,584,1071,1072,590,591,1073,595,1074,1075,1076,1077,1078,1079,619,620,621,622,623,624,
625,1080,631,632,633,634,635,636,1081,1082,1083,1084,1085,1086,1087,1088,1089,682,683,684,685,
686,1090,1091,706,707,708,709,710,1092,1093,1094,1095,1096,1097,1098,1099,1100,757,758,759,760,
761,1101,1102,777,778,779,780,781,1103,1104,1105,1106,1107,1108,806,807,808,809,810,811,1109,
814,815,816,817,818,819,820,821,1110,1111,1112,1113,1114,1115,846,847,848,849,850,851,1116,
859,860,861,862,863,864,865,866,1117,1118,1119,1120,1121,1122,1123,895,896,897,898,899,900,
901,902,903,904,905,906,907,1124,1125,1126,1127,1128,1129,1130,936,937,938,939,940,941,942,
943,944,945,946,947,948,1131,1132,1133,1134,1135,1136,1137,1138,1139,984,985,986,987,988,989
</data>
 </layer>
</map>
