<?xml version="1.0" encoding="UTF-8"?>
<map version="1.10" tiledversion="1.10.2" orientation="orthogonal" renderorder="right-down" width="21" height="19" tilewidth="24" tileheight="24" infinite="0" nextlayerid="2" nextobjectid="1">
 <properties>
  <property name="zone" value="grotte_moussue"/>
  <property name="frames" type="int" value="12"/>
  <property name="frame_ms" type="int" value="110"/>
  <property name="tuiles_animees" type="int" value="111"/>
 </properties>
 <tileset firstgid="1" source="grotte_moussue_tuiles.tsx"/>
 <layer id="1" name="grotte_moussue" width="21" height="19">
  <data encoding="csv">
1,2,3,4,5,6,7,8,9,10,11,12,13,14,15,16,17,18,19,20,21,
22,656,657,658,659,660,661,46,47,48,49,50,51,52,53,54,55,56,57,58,59,
60,662,663,69,69,69,664,665,78,79,80,81,82,83,84,85,666,667,91,92,93,
94,668,669,69,69,69,670,671,111,112,113,114,115,116,117,118,119,672,673,124,125,
126,674,675,69,69,69,676,677,678,679,680,681,682,683,684,685,166,686,687,688,179,
180,689,690,691,692,693,694,205,206,695,696,697,698,699,700,701,702,703,240,241,242,
243,244,245,246,704,705,706,707,260,261,262,708,267,268,269,270,271,272,273,274,275,
276,277,278,279,280,709,710,711,712,295,296,297,713,301,714,715,716,312,313,314,315,
316,317,318,319,717,324,325,326,327,328,329,330,718,719,720,721,722,351,352,353,354,
355,723,724,725,726,368,369,370,371,372,373,374,375,376,727,728,729,385,386,387,388,
389,730,731,732,733,402,403,404,405,734,409,410,411,412,735,415,416,417,418,419,420,
421,422,423,424,425,426,427,428,736,737,738,438,439,440,441,442,443,444,739,740,451,
452,453,454,455,456,457,458,459,741,462,463,464,465,466,467,742,743,474,744,479,480,
481,745,746,747,491,748,749,498,499,500,501,502,503,504,505,750,751,752,753,518,519,
520,521,522,754,527,755,756,536,537,538,539,540,541,542,757,758,759,552,553,554,555,
556,557,558,760,761,567,568,569,570,571,572,573,574,575,576,762,763,764,586,587,588,
589,590,765,766,597,598,599,600,601,602,603,604,605,606,607,608,609,610,611,612,613,
614,615,616,617,618,619,620,621,622,623,624,625,626,627,628,629,630,631,632,633,634,
635,636,637,638,639,640,641,642,643,644,645,646,647,648,649,650,651,652,653,654,655
</data>
 </layer>
</map>
