<?xml version="1.0" encoding="UTF-8"?>
<map version="1.10" tiledversion="1.10.2" orientation="orthogonal" renderorder="right-down" width="21" height="19" tilewidth="24" tileheight="24" infinite="0" nextlayerid="2" nextobjectid="1">
 <properties>
  <property name="zone" value="arene_orage_nu"/>
  <property name="frames" type="int" value="24"/>
  <property name="frame_ms" type="int" value="110"/>
  <property name="tuiles_animees" type="int" value="259"/>
 </properties>
 <tileset firstgid="1" source="arene_orage_nu_tuiles.tsx"/>
 <layer id="1" name="arene_orage_nu" width="21" height="19">
  <data encoding="csv">
1,2,3,4,4,4,4,4,4,1015,1016,1017,1018,1019,4,4,4,4,4,4,19,
20,21,22,23,22,1020,1021,1022,1023,1024,1025,1026,1027,1028,1029,1030,1031,57,58,59,60,
61,62,1032,1033,1034,1035,1036,1037,1038,1039,1040,1041,1042,1043,1044,1045,1046,1047,1048,121,60,
1,1049,1050,1051,1052,1053,1054,1055,1056,1057,1058,1059,1060,1061,1062,1063,1064,1065,1066,1067,60,
1068,1069,1070,1071,1072,1073,1074,1075,1076,1077,1078,1079,1080,1081,1082,1083,1084,1085,1086,1087,1088,
1089,1090,1091,1092,1093,1094,1095,1096,1097,1098,1099,1100,1101,1102,1103,1104,1105,1106,1107,1108,1109,
1110,1111,1112,1113,1114,1115,365,366,367,368,369,370,371,372,373,1116,1117,1118,1119,1120,1121,
1122,1123,1124,1125,412,413,414,415,416,417,418,419,420,421,422,423,1126,1127,1128,1129,1130,
1131,1132,1133,1134,454,455,456,457,458,459,460,461,462,463,464,465,466,1135,1136,1137,1138,
1139,1140,1141,1142,496,497,498,499,500,501,502,503,504,505,506,507,508,1143,1144,1145,1146,
1147,1148,1149,1150,540,541,542,543,544,545,546,547,548,549,550,551,552,1151,1152,1153,1154,
1155,1156,1157,1158,582,583,584,585,586,587,588,589,590,591,592,593,594,1159,1160,1161,1162,
1163,1164,1165,1166,1167,626,627,628,629,630,631,632,633,634,635,1168,1169,1170,1171,1172,1173,
1174,1175,1176,1177,1178,1179,1180,1181,1182,683,684,1183,1184,1185,1186,1187,1188,1189,1190,1191,1192,
1193,1194,1195,1196,1197,1198,1199,1200,1201,1202,760,1203,1204,1205,1206,1207,1208,1209,1210,1211,1212,
1213,1214,1215,1216,1217,1218,1219,1220,1221,1222,833,1223,1224,1225,1226,1227,1228,1229,1230,1231,1232,
865,1233,1234,1235,1236,1237,1238,1239,1240,891,892,1241,1242,1243,1244,1245,1246,1247,1248,1249,60,
925,926,927,1250,1251,1252,1253,1254,1255,948,949,950,1256,1257,1258,1259,1260,1261,1262,975,60,
976,977,977,977,1263,1264,1265,1266,1267,996,997,1268,1269,1270,1271,1272,1273,977,977,977,1014
</data>
 </layer>
</map>
