<?xml version="1.0" encoding="UTF-8"?>
<map version="1.10" tiledversion="1.10.2" orientation="orthogonal" renderorder="right-down" width="21" height="19" tilewidth="24" tileheight="24" infinite="0" nextlayerid="2" nextobjectid="1">
 <properties>
  <property name="zone" value="clairiere_b3f"/>
  <property name="frames" type="int" value="24"/>
  <property name="frame_ms" type="int" value="110"/>
  <property name="tuiles_animees" type="int" value="314"/>
 </properties>
 <tileset firstgid="1" source="clairiere_b3f_tuiles.tsx"/>
 <layer id="1" name="clairiere_b3f" width="21" height="19">
  <data encoding="csv">
1648,1649,1650,9,1651,1652,1653,1654,1655,1656,1657,36,1658,1659,1660,1661,1662,1663,1664,1665,64,
1666,1667,1668,77,78,1669,1670,1671,91,92,93,94,1672,1673,106,107,108,109,110,1674,1675,
1676,1677,1678,135,1679,1680,1681,1682,1683,1684,1685,1686,1687,177,178,179,1688,1689,1690,1691,194,
195,1692,1693,200,1694,1695,1696,1697,1698,1699,1700,1701,1702,257,258,259,260,1703,1704,1705,1706,
1707,1708,1709,1710,1711,1712,1713,1714,1715,336,337,1716,1717,1718,357,358,359,360,361,362,1719,
1720,1721,1722,1723,1724,1725,1726,1727,1728,1729,1730,1731,1732,1733,449,1734,1735,464,1736,1737,1738,
1739,1740,1741,1742,1743,1744,1745,1746,522,522,1747,1748,1749,1750,541,1751,1752,552,1753,1754,1755,
1756,1757,1758,1759,593,1760,1761,1762,1763,1764,1765,522,1766,1767,631,1768,1769,1770,1771,1772,1773,
1774,1775,1776,1777,1778,703,1779,522,1780,1781,714,1782,1783,1784,1785,1786,1787,1788,1789,1790,1791,
1792,1793,1794,1795,799,800,1796,1797,1798,1799,522,1800,1801,1802,1803,1804,1805,1806,1807,1808,1809,
1810,1811,1812,1813,890,1814,1815,1816,1817,1818,1819,1820,1821,1822,1823,1824,1825,1826,1827,1828,1829,
1830,1831,1832,1833,1002,1003,1834,1835,1836,1837,1838,1839,1035,1036,1037,1038,1840,1841,1842,1843,1844,
1845,1846,1847,1848,1104,1105,1106,1849,1850,1851,1119,1852,1853,1854,1855,1856,1857,1858,1859,1860,1861,
1862,1863,1864,1865,1866,1867,1868,1869,1216,1870,1871,1872,1873,1874,1875,1876,1877,1878,1879,1880,1881,
1882,1883,1884,1885,1886,1887,1888,1889,1890,1891,1892,1893,1894,1895,1896,1897,1898,1899,1900,1901,1902,
1903,1904,1905,1906,1907,1908,1909,1910,1911,1428,1429,1912,1913,1914,1915,1916,1917,1918,1919,1920,1921,
1922,1923,1924,1925,1926,1514,1515,1516,1517,1518,1519,1520,1521,1927,1928,1929,1930,1931,1932,1933,1934,
1935,1936,1937,1938,1939,1940,1941,1942,1943,1586,1587,1588,1589,1590,1591,1944,1945,1946,1947,1948,1949,
1950,1951,1952,1619,1953,1954,1955,1956,1957,1630,1958,1633,1634,1635,1636,1637,1638,1639,1959,1960,1961
</data>
 </layer>
</map>
