<?xml version="1.0" encoding="UTF-8"?>
<map version="1.10" tiledversion="1.10.2" orientation="orthogonal" renderorder="right-down" width="21" height="19" tilewidth="24" tileheight="24" infinite="0" nextlayerid="2" nextobjectid="1">
 <properties>
  <property name="zone" value="bassin_sentier"/>
  <property name="frames" type="int" value="12"/>
  <property name="frame_ms" type="int" value="110"/>
  <property name="tuiles_animees" type="int" value="262"/>
 </properties>
 <tileset firstgid="1" source="bassin_sentier_tuiles.tsx"/>
 <layer id="1" name="bassin_sentier" width="21" height="19">
  <data encoding="csv">
2150,2151,19,20,21,2152,2153,2154,2155,2156,2157,2158,2159,110,2160,2161,2162,2163,2164,160,161,
2165,2166,186,187,188,2167,2168,2169,2170,2171,2172,2173,2174,2175,2176,2177,2178,2179,2180,2181,312,
2182,2183,2184,2185,2186,2187,2188,2189,2190,2191,2192,2193,2194,2195,2196,2197,2198,448,449,2199,2200,
467,468,469,2201,2202,2203,2204,2205,2206,2207,2208,2209,2210,2211,2212,2213,2214,2215,589,2216,2217,
604,605,2218,2219,2220,2221,2222,2223,2224,2225,662,2226,2227,2228,2229,2230,2231,2232,2233,2234,2235,
732,2236,2237,2238,2239,2240,2241,2242,2243,2244,2245,649,827,2246,2247,2248,2249,867,2250,2251,2252,
2253,2254,2255,2256,2257,2258,2259,2260,2261,2262,2263,2264,2265,2266,2267,2268,2269,2270,2271,2272,2273,
2274,2275,2276,2277,1089,2278,2279,2280,2281,2282,2283,2284,2285,2286,2287,2288,1202,2289,2290,2291,2292,
2293,2294,2295,2296,2297,2298,2299,2300,2301,1306,1307,2302,2303,2304,2305,1326,2306,2307,2308,2309,2310,
2311,2312,2313,2314,2315,2316,1410,1411,2317,1417,1418,1419,1420,1421,1422,1423,1424,2318,2319,2320,2321,
2322,2323,2324,2325,2326,2327,1487,2328,2329,1510,2330,1516,1517,1518,1519,1520,1521,1522,2331,1527,1528,
2332,2333,2334,2335,1545,1546,1547,2336,2337,1556,2338,1562,1563,2339,2340,1586,2341,1594,2342,2343,2344,
1616,1617,2345,2346,1627,1628,1629,1630,1631,1632,1633,1634,2347,2348,2349,2350,1672,1673,2351,2352,2353,
1683,2354,2355,2356,1701,1702,1703,1704,1705,1706,1707,1708,2357,2358,2359,1737,1738,1739,1740,1741,1742,
2360,2361,2362,1766,1767,1768,2363,2364,2365,1789,1790,1791,2366,2367,2368,1810,1811,1812,1813,1814,1815,
1816,1817,1818,1819,1820,2369,2370,2371,2372,1861,2373,2374,2375,2376,2377,1883,1884,1885,2378,2379,2380,
1907,1908,2381,2382,2383,1936,1937,1938,2384,2385,2386,2387,2388,2389,2390,2391,2392,2393,2394,2046,2047,
2048,2049,2395,2396,2397,2071,2072,2073,2398,2399,2400,2084,2085,2401,2402,2403,2404,2405,2406,2120,2121,
2122,2123,2407,2126,2408,2129,2130,2131,2132,2133,2134,2135,2136,2409,2410,2411,2145,2146,2147,2148,2149
</data>
 </layer>
</map>
