<?xml version="1.0" encoding="UTF-8"?>
<map version="1.10" tiledversion="1.10.2" orientation="orthogonal" renderorder="right-down" width="21" height="19" tilewidth="24" tileheight="24" infinite="0" nextlayerid="2" nextobjectid="1">
 <properties>
  <property name="zone" value="arene_banquise_nu"/>
  <property name="frames" type="int" value="24"/>
  <property name="frame_ms" type="int" value="110"/>
  <property name="tuiles_animees" type="int" value="287"/>
 </properties>
 <tileset firstgid="1" source="arene_banquise_nu_tuiles.tsx"/>
 <layer id="1" name="arene_banquise_nu" width="21" height="19">
  <data encoding="csv">
1,2,3,4,1118,1119,1120,1121,1122,1123,1124,1125,1126,1127,1128,1129,1130,49,52,53,54,
55,56,57,1131,1132,1133,1134,1135,1136,1137,1138,1139,1140,1141,1142,1143,1144,113,114,115,116,
117,1145,1146,1147,1148,1149,1150,1151,1152,1153,1154,1155,1156,1157,1158,1159,1160,1161,1162,1163,188,
1164,1165,1166,1167,1168,1169,1170,1171,1172,1173,1174,1175,1176,1177,1178,1179,1180,1181,1182,1183,1184,
1185,1186,1187,1188,1189,1190,1191,1192,1193,1194,1195,1196,1197,1198,1199,1200,1201,1202,1203,1204,1205,
1206,1207,1208,1209,1210,1211,1212,377,1213,380,381,382,1214,386,1215,1216,1217,1218,1219,1220,1221,
1222,1223,1224,1225,1226,1227,1228,1229,1230,1231,1232,1233,1234,1235,1236,1237,1238,1239,1240,1241,1242,
1243,1244,1245,1246,1247,492,493,494,495,496,497,498,499,500,501,1248,1249,1250,1251,1252,1253,
1254,1255,1256,1257,534,535,536,537,538,539,540,541,542,543,544,545,546,1258,1259,1260,1261,
1262,565,1263,568,569,570,571,571,571,572,573,574,571,571,571,575,576,1264,579,580,1265,
1266,1267,1268,593,594,595,596,597,598,599,600,601,602,603,604,605,606,607,1269,1270,1271,
1272,1273,1274,627,628,629,630,631,632,633,571,634,635,636,637,1275,640,641,1276,1277,1278,
1279,1280,1281,1282,667,668,669,670,671,672,673,674,675,1283,1284,680,1285,1286,1287,1288,1289,
1290,1291,1292,1293,1294,1295,1296,1297,1298,729,1299,1300,1301,1302,1303,1304,1305,1306,1307,1308,1309,
1310,1311,1312,1313,1314,1315,1316,1317,1318,1319,1320,1321,1322,1323,1324,1325,1326,1327,1328,1329,1330,
1331,1332,1333,1334,1335,1336,1337,1338,1339,1340,1341,1342,1343,1344,1345,1346,1347,1348,1349,1350,1351,
1352,1353,1354,1355,1356,1357,1358,1359,1360,1361,1362,1363,1364,1365,1366,1367,1368,1369,1370,1371,1372,
700,1373,1374,1375,1376,1377,1378,1379,1380,1381,1382,1383,1384,1385,1386,1387,1388,1389,1390,1391,763,
1070,1071,1072,1073,1392,1393,1394,1395,1396,1397,1398,1399,1400,1401,1402,1403,1404,1071,1071,1071,1117
</data>
 </layer>
</map>
