<?xml version="1.0" encoding="UTF-8"?>
<map version="1.10" tiledversion="1.10.2" orientation="orthogonal" renderorder="right-down" width="21" height="19" tilewidth="24" tileheight="24" infinite="0" nextlayerid="2" nextobjectid="1">
 <properties>
  <property name="zone" value="arene_volcan_crepuscule"/>
  <property name="frames" type="int" value="24"/>
  <property name="frame_ms" type="int" value="110"/>
  <property name="tuiles_animees" type="int" value="244"/>
 </properties>
 <tileset firstgid="1" source="arene_volcan_crepuscule_tuiles.tsx"/>
 <layer id="1" name="arene_volcan_crepuscule" width="21" height="19">
  <data encoding="csv">
1,1,1,1,1,1,942,943,944,1,1,945,946,947,948,1,1,1,1,1,1,
1,1,949,950,951,952,953,954,955,956,957,958,959,960,961,962,963,964,965,1,1,
1,1,966,967,968,969,970,971,972,973,974,975,976,977,978,979,980,981,982,983,1,
1,984,985,986,987,988,989,990,991,992,993,994,995,996,997,998,999,1000,1001,1002,1,
1003,1004,1005,1006,1007,1008,1009,1010,1011,1012,1013,1014,1015,1016,1017,1018,1019,1020,1021,1022,1023,
1024,1025,1026,1027,1028,1029,1030,1031,295,296,297,298,299,1032,1033,1034,1035,1036,1037,1038,1039,
1040,1041,1042,1043,1044,350,351,352,353,354,355,356,357,358,359,360,1045,1046,1047,1048,1049,
1050,1051,1052,1053,1054,399,400,401,402,403,404,405,406,407,408,409,1055,1056,1057,1058,1059,
1060,1061,1062,441,442,443,444,445,446,447,448,449,450,451,452,453,454,455,1063,1064,1065,
1066,1067,476,477,478,479,480,481,482,483,484,485,486,487,488,489,490,491,492,1068,1069,
1070,1071,506,507,508,509,510,511,512,513,514,515,516,517,518,519,520,521,522,1072,1073,
1074,1075,1076,542,543,544,545,546,547,548,549,550,551,552,553,554,555,556,1077,1078,1079,
1080,1081,1082,1083,585,586,587,588,589,590,591,592,593,594,595,596,597,1084,1085,1086,1087,
1088,1089,1090,1091,1092,1093,1094,1095,639,640,641,642,643,1096,1097,1098,1099,1100,1101,1102,1103,
1104,1105,1106,1107,1108,1109,1110,1111,1112,1113,1114,1115,1116,1117,1118,1119,1120,1121,1122,1123,1124,
1125,1126,1127,1128,1129,1130,1131,1132,1133,1134,1135,1136,1137,1138,1139,1140,1141,1142,1143,1144,1145,
1,1146,1147,1148,1149,1150,1151,1152,1153,1154,1155,1156,1157,1158,1159,1160,1161,1162,1163,1164,1,
1,1,1,1165,1166,1167,1168,1169,1170,1171,1172,1173,1174,1175,1176,1177,1178,1179,1,1,1,
1,1,1,1,1,1,1,1180,1181,1,1182,1183,1184,1185,1,1,1,1,1,1,1
</data>
 </layer>
</map>
