<?xml version="1.0" encoding="UTF-8"?>
<map version="1.10" tiledversion="1.10.2" orientation="orthogonal" renderorder="right-down" width="21" height="19" tilewidth="24" tileheight="24" infinite="0" nextlayerid="2" nextobjectid="1">
 <properties>
  <property name="zone" value="entree_arbre"/>
  <property name="frames" type="int" value="24"/>
  <property name="frame_ms" type="int" value="110"/>
  <property name="tuiles_animees" type="int" value="139"/>
 </properties>
 <tileset firstgid="1" source="entree_arbre_tuiles.tsx"/>
 <layer id="1" name="entree_arbre" width="21" height="19">
  <data encoding="csv">
1,2,3,4,5,991,992,16,17,993,994,27,28,995,996,43,44,45,46,47,48,
49,50,51,997,998,999,1000,1001,85,1002,1003,100,101,102,1004,107,108,109,110,111,112,
113,114,115,116,117,1005,1006,1007,1008,138,139,140,141,142,143,144,145,146,147,148,149,
1009,1010,1011,1012,173,1013,1014,1015,1016,197,198,1017,1018,1019,1020,214,215,216,1021,1022,1023,
235,1024,1025,1026,247,248,1027,1028,257,258,259,260,1029,1030,1031,1032,1033,1034,1035,1036,1037,
295,296,297,298,299,1038,1039,1040,315,316,317,318,319,320,321,1041,1042,1043,1044,1045,1046,
364,365,366,367,368,369,370,371,372,373,374,375,376,377,378,1047,1048,1049,394,395,396,
1050,1051,1052,411,412,413,414,415,1053,1054,430,431,432,433,434,435,436,437,438,439,440,
441,1055,1056,458,1057,1058,470,471,472,473,474,1059,1060,1061,481,482,483,484,485,486,487,
1062,1063,497,1064,1065,1066,515,516,1067,520,521,522,523,524,525,526,527,528,1068,1069,535,
1070,1071,1072,1073,1074,1075,1076,575,576,577,578,579,580,581,1077,1078,592,593,594,595,596,
1079,1080,1081,1082,1083,1084,1085,635,636,637,638,639,640,1086,1087,1088,658,659,660,661,662,
663,1089,1090,1091,1092,688,689,690,691,692,693,694,695,696,697,698,1093,1094,1095,1096,1097,
734,735,736,737,738,739,740,741,742,743,744,745,746,747,748,749,1098,1099,1100,1101,1102,
776,1103,1104,1105,1106,1107,804,805,806,807,808,809,810,1108,1109,1110,1111,1112,1113,1114,1115,
856,857,858,859,860,861,862,863,864,865,866,867,1116,1117,1118,1119,1120,1121,1122,900,901,
902,903,904,1123,1124,919,920,921,922,923,924,925,1125,1126,1127,939,940,941,1128,945,946,
947,948,949,950,951,952,953,954,955,956,957,958,959,960,961,1129,965,966,967,968,969,
970,971,972,973,974,975,976,977,978,979,980,981,982,983,984,985,986,987,988,989,990
</data>
 </layer>
</map>
