<?xml version="1.0" encoding="UTF-8"?>
<map version="1.10" tiledversion="1.10.2" orientation="orthogonal" renderorder="right-down" width="21" height="19" tilewidth="24" tileheight="24" infinite="0" nextlayerid="2" nextobjectid="1">
 <properties>
  <property name="zone" value="arene_desert_nu"/>
  <property name="frames" type="int" value="24"/>
  <property name="frame_ms" type="int" value="110"/>
  <property name="tuiles_animees" type="int" value="236"/>
 </properties>
 <tileset firstgid="1" source="arene_desert_nu_tuiles.tsx"/>
 <layer id="1" name="arene_desert_nu" width="21" height="19">
  <data encoding="csv">
1,2,3,3,927,928,929,930,931,932,933,934,935,936,3,937,938,27,28,3,29,
30,31,1,939,940,941,1,942,943,944,945,946,947,948,949,950,951,952,953,64,65,
954,955,956,957,958,959,960,961,962,963,964,965,966,967,968,969,970,971,972,973,974,
975,976,977,978,979,980,981,982,983,984,985,986,987,988,989,990,991,992,993,994,995,
996,997,998,999,1000,1001,1002,1003,1004,1005,1006,1007,1008,1009,1010,1011,1012,1013,1014,1015,1016,
1017,1018,1019,1020,1021,1022,309,310,311,312,313,314,315,316,317,1023,1024,1025,1026,1027,1028,
1029,1030,1031,1032,353,354,355,356,357,358,359,360,361,362,363,364,365,1033,1034,1035,1036,
1037,1038,1039,391,392,393,394,395,396,397,398,399,400,401,402,403,404,405,1040,1041,1042,
418,1043,1044,424,425,426,427,428,429,430,431,432,433,434,435,436,437,438,1045,1046,444,
445,446,447,448,449,450,451,452,453,454,455,456,457,458,459,460,461,462,463,464,1047,
1048,1049,476,477,478,479,480,481,482,483,484,485,486,487,488,489,490,491,492,1050,1051,
1052,1053,1054,1055,515,516,517,518,519,520,521,522,523,524,525,526,527,1056,1057,1058,1059,
1060,546,1061,1062,1063,1064,561,562,563,564,565,566,567,568,569,1065,1066,1067,1068,1069,1070,
592,1071,1072,1073,1074,1075,1076,1077,620,621,622,623,624,1078,1079,1080,149,149,1081,1082,1083,
1084,1085,1086,1087,1088,1089,1090,1091,1092,1093,681,1094,1095,1096,1097,1098,1099,1100,1101,1102,1103,
1104,1105,1106,1107,1108,1109,1110,1111,1112,1113,753,1114,1115,1116,1117,1118,1119,1120,1121,1122,1123,
139,70,1124,1125,1126,1127,1128,1129,1130,1131,816,1132,1133,1134,1135,1136,1137,1138,1139,64,65,
139,70,1,845,1140,1141,1142,1143,1144,1145,867,1146,1147,1148,1149,1150,1151,1,1,64,65,
887,888,889,1,1,1152,1153,1154,1155,1156,908,1157,1158,1159,1160,1161,1162,894,894,894,926
</data>
 </layer>
</map>
