<?xml version="1.0" encoding="UTF-8"?>
<map version="1.10" tiledversion="1.10.2" orientation="orthogonal" renderorder="right-down" width="21" height="19" tilewidth="24" tileheight="24" infinite="0" nextlayerid="2" nextobjectid="1">
 <properties>
  <property name="zone" value="arene_temple_nu"/>
  <property name="frames" type="int" value="24"/>
  <property name="frame_ms" type="int" value="110"/>
  <property name="tuiles_animees" type="int" value="220"/>
 </properties>
 <tileset firstgid="1" source="arene_temple_nu_tuiles.tsx"/>
 <layer id="1" name="arene_temple_nu" width="21" height="19">
  <data encoding="csv">
1,1,1,976,977,978,979,980,981,982,983,984,985,986,987,988,989,990,991,992,993,
1,66,67,994,995,996,997,998,999,1000,1001,1002,1003,1004,1005,1006,1007,1008,1009,1010,1011,
126,127,1012,1013,1014,1015,1016,1017,1018,1019,1020,1021,1022,1023,1024,1025,1026,1027,1028,1029,1030,
197,1031,1032,1033,1034,1035,1036,1037,1038,1039,1040,1041,1042,1043,1044,1045,1046,1047,1048,1049,1050,
1051,1052,1053,1054,1055,1056,1057,299,300,301,302,303,304,305,306,307,308,309,310,311,312,
1058,1059,1060,130,1061,1062,332,333,334,335,336,337,338,339,340,341,342,343,344,345,346,
1063,1064,1065,1066,1067,367,368,369,370,371,372,373,374,375,376,377,378,379,380,381,382,
1068,1069,1070,1071,398,399,400,401,402,403,404,405,406,407,408,409,410,411,412,413,414,
1072,1073,1074,427,428,429,430,431,432,433,434,435,436,437,438,439,440,441,442,443,444,
1075,1076,453,454,455,456,457,458,459,460,461,462,463,464,465,466,467,468,469,470,1077,
1078,477,478,479,480,481,482,483,484,485,486,487,488,489,490,491,492,493,494,1079,1080,
1081,1082,511,512,513,514,515,516,517,518,519,520,521,522,523,524,525,526,1083,1084,1085,
1086,1087,1088,1089,1090,1091,563,564,565,566,567,568,569,570,571,572,573,1092,1093,1094,1095,
1096,1097,1098,1099,1100,1101,1102,1103,1104,1105,1106,631,632,633,634,635,1107,1108,1109,1110,1111,
1112,1113,1114,1115,1116,1117,130,130,1118,1119,1120,1121,1122,1123,701,1124,1125,1126,1127,1128,1129,
1130,1131,1132,1133,1134,130,130,130,1135,1136,1137,1138,1139,1140,1141,1142,1143,1144,1145,1146,1147,
1148,1149,1150,1151,1152,1153,1154,1155,1156,1157,827,1158,1159,1160,1161,1162,1163,1164,1165,1166,1,
1,861,862,863,1167,1168,1169,1170,1171,1172,887,1173,1174,1175,1176,1177,1178,1179,1180,1181,1,
1,921,922,923,1182,1183,1184,1185,1186,1187,946,1188,1189,1190,1191,1192,1193,1194,1195,1,1
</data>
 </layer>
</map>
