<?xml version="1.0" encoding="UTF-8"?>
<map version="1.10" tiledversion="1.10.2" orientation="orthogonal" renderorder="right-down" width="21" height="19" tilewidth="24" tileheight="24" infinite="0" nextlayerid="2" nextobjectid="1">
 <properties>
  <property name="zone" value="ruines_englouties"/>
  <property name="frames" type="int" value="12"/>
  <property name="frame_ms" type="int" value="110"/>
  <property name="tuiles_animees" type="int" value="107"/>
 </properties>
 <tileset firstgid="1" source="ruines_englouties_tuiles.tsx"/>
 <layer id="1" name="ruines_englouties" width="21" height="19">
  <data encoding="csv">
1,2,3,4,5,6,7,8,9,10,11,706,707,708,709,710,711,712,713,714,715,
49,50,51,52,53,54,55,56,57,58,59,716,717,718,719,720,721,722,723,724,725,
98,99,100,101,102,103,104,105,106,107,108,109,726,727,728,729,730,731,732,733,734,
144,145,146,147,148,149,150,151,152,153,154,735,736,737,738,739,740,741,742,743,27,
191,192,193,194,195,196,197,198,199,200,201,202,744,745,746,747,748,749,750,751,752,
238,239,240,241,242,243,244,245,246,247,248,249,753,754,755,756,757,758,759,760,761,
285,286,287,288,289,290,291,292,293,294,295,296,297,762,763,764,765,766,767,768,769,
330,331,332,333,334,335,336,337,338,339,340,341,342,770,771,772,773,774,775,776,777,
374,375,376,377,378,379,380,381,382,383,384,385,386,387,778,779,780,781,782,783,784,
414,415,416,417,418,419,420,421,422,423,424,425,426,785,786,787,788,789,790,791,792,
458,459,460,461,462,463,464,465,466,467,468,469,470,471,793,794,795,796,797,798,799,
500,501,502,503,504,505,506,507,508,509,510,511,512,513,800,801,802,803,804,805,806,
542,543,544,545,546,547,548,549,550,551,552,553,554,555,556,557,807,808,809,810,811,
577,578,579,580,581,582,583,584,585,586,587,588,589,590,591,592,593,594,595,596,812,
601,602,603,604,605,606,607,608,609,610,611,612,613,614,615,616,617,618,619,620,621,
622,623,624,625,626,627,628,629,630,631,632,633,634,635,636,637,638,639,640,641,642,
643,644,645,646,647,648,649,650,651,652,653,654,655,656,657,658,659,660,661,662,663,
664,665,666,667,668,669,670,671,672,673,674,675,676,677,678,679,680,681,682,683,684,
685,686,687,688,689,690,691,692,693,694,695,696,697,698,699,700,701,702,703,704,705
</data>
 </layer>
</map>
