<?xml version="1.0" encoding="UTF-8"?>
<map version="1.10" tiledversion="1.10.2" orientation="orthogonal" renderorder="right-down" width="21" height="19" tilewidth="24" tileheight="24" infinite="0" nextlayerid="2" nextobjectid="1">
 <properties>
  <property name="zone" value="arene_abysse_nu"/>
  <property name="frames" type="int" value="24"/>
  <property name="frame_ms" type="int" value="110"/>
  <property name="tuiles_animees" type="int" value="227"/>
 </properties>
 <tileset firstgid="1" source="arene_abysse_nu_tuiles.tsx"/>
 <layer id="1" name="arene_abysse_nu" width="21" height="19">
  <data encoding="csv">
1,2,2,2,954,955,956,957,958,959,960,961,962,963,964,965,966,2,2,2,43,
44,45,967,968,969,970,971,972,973,974,68,975,976,48,977,978,979,980,981,45,80,
81,982,983,984,985,986,987,988,989,990,991,992,993,994,995,996,997,998,999,1000,80,
45,1001,1002,1003,1004,1005,1006,1007,1008,1009,1010,1011,1012,1013,1014,1015,1016,1017,1018,1019,1020,
1021,1022,1023,1024,1025,1026,1027,254,255,1028,258,259,260,261,1029,1030,1031,1032,1033,1034,1035,
1036,45,1037,1038,1039,299,300,301,302,303,304,305,306,307,308,309,1040,1041,1042,1043,1044,
1045,1046,1047,341,342,343,344,345,346,347,348,349,350,351,352,353,354,355,1048,1049,1050,
1051,372,373,374,375,376,377,378,379,380,381,382,383,384,385,386,387,388,389,1052,1053,
396,397,398,399,400,401,402,403,404,405,406,407,408,409,410,411,412,413,414,415,416,
417,418,419,420,421,422,423,424,425,426,427,428,429,430,431,432,433,434,435,436,437,
1054,1055,444,445,446,447,448,449,450,451,452,453,454,455,456,457,458,459,460,461,1056,
1057,1058,1059,1060,480,481,482,483,484,485,486,487,488,489,490,491,492,1061,1062,499,1063,
1064,1065,1066,1067,1068,524,525,526,527,528,529,530,531,532,533,534,1069,1070,1071,1072,1073,
1074,1075,1076,1077,1078,1079,1080,1081,587,588,589,590,591,1082,1083,1084,1085,1086,1087,1088,1089,
1090,1091,1092,1093,1094,1095,1096,1097,1098,657,658,659,1099,1100,1101,1102,1103,1104,1105,1106,1107,
1108,1109,1110,1111,1112,1113,1114,1115,1116,1117,734,1118,1119,1120,1121,1122,1123,1124,1125,1126,1127,
1128,1129,1130,1131,1132,1133,1134,1135,1136,806,807,1137,1138,1139,1140,1141,1142,1143,1144,1145,1146,
1147,1148,1149,1150,1151,1152,1153,1154,1155,866,867,1156,1157,1158,851,1159,1160,1161,1162,1163,1164,
1165,1166,1167,1168,1169,1170,1171,1172,1173,1174,932,1175,1176,1177,1178,1179,950,45,45,45,1180
</data>
 </layer>
</map>
